;FLAVOR:Marlin
;TIME:22804
;Filament used: 23.3106m
;Layer height: 0.28
;MINX:16.518
;MINY:16.51
;MINZ:0.28
;MAXX:218.482
;MAXY:218.49
;MAXZ:3.92
;Generated with Cura_SteamEngine master
M140 S50
M105
M190 S50
M104 S200
M105
M109 S200
M82 ;absolute extrusion mode
; Ender 3 Custom Start G-code
G92 E0 ; Reset Extruder
G28 ; Home all axes
G1 Z2.0 F3000 ; Move Z Axis up little to prevent scratching of Heat Bed
G1 X0.1 Y20 Z0.3 F5000.0 ; Move to start position
G1 X0.1 Y200.0 Z0.3 F1500.0 E15 ; Draw the first line
G1 X0.4 Y200.0 Z0.3 F5000.0 ; Move to side a little
G1 X0.4 Y20 Z0.3 F1500.0 E30 ; Draw the second line
G92 E0 ; Reset Extruder
G1 Z2.0 F3000 ; Move Z Axis up little to prevent scratching of Heat Bed
G1 X5 Y20 Z0.3 F5000.0 ; Move over to prevent blob squish
G92 E0
G92 E0
G1 F2700 E-5
;LAYER_COUNT:14
;LAYER:0
M107
G0 F6000 X45.225 Y46.972 Z0.28
;TYPE:SKIRT
G1 F2700 E0
G1 F1200 X47.512 Y44.703 E0.15001
G1 X48.205 Y44.034 E0.19486
G1 X48.401 Y43.849 E0.20741
G1 X48.817 Y43.468 E0.23368
G1 X51.369 Y41.178 E0.39334
G1 X51.98 Y40.647 E0.43103
G1 X52.469 Y40.238 E0.46072
G1 X55.114 Y38.091 E0.61935
G1 X55.88 Y37.486 E0.6648
G1 X56.113 Y37.307 E0.67848
G1 X56.477 Y37.036 E0.69961
G1 X59.219 Y35.031 E0.85778
G1 X59.961 Y34.503 E0.90019
G1 X60.194 Y34.341 E0.9134
G1 X60.59 Y34.075 E0.93562
G1 X63.296 Y32.296 E1.08641
G1 X64.173 Y31.736 E1.13486
G1 X64.436 Y31.573 E1.14927
G1 X64.805 Y31.352 E1.1693
G1 X67.782 Y29.602 E1.3301
G1 X68.495 Y29.196 E1.3683
G1 X68.736 Y29.063 E1.38112
G1 X69.191 Y28.819 E1.40516
G1 X72.162 Y27.265 E1.56128
G1 X72.982 Y26.85 E1.60408
G1 X73.239 Y26.725 E1.61739
G1 X73.649 Y26.531 E1.63851
G1 X76.581 Y25.179 E1.78885
G1 X77.558 Y24.745 E1.83863
G1 X77.78 Y24.649 E1.84989
G1 X78.285 Y24.439 E1.87536
G1 X81.217 Y23.26 E2.02251
G1 X82.228 Y22.869 E2.07298
G1 X82.473 Y22.777 E2.08517
G1 X82.926 Y22.616 E2.10756
G1 X86.16 Y21.501 E2.26684
G1 X86.964 Y21.236 E2.30626
G1 X87.229 Y21.152 E2.31921
G1 X87.734 Y21 E2.34376
G1 X90.939 Y20.072 E2.49913
G1 X91.814 Y19.831 E2.54139
G1 X92.073 Y19.763 E2.55386
G1 X92.592 Y19.634 E2.57876
G1 X95.732 Y18.89 E2.72902
G1 X96.692 Y18.676 E2.77482
G1 X96.952 Y18.621 E2.7872
G1 X97.473 Y18.52 E2.81191
G1 X100.855 Y17.895 E2.97206
G1 X101.647 Y17.761 E3.00946
G1 X101.894 Y17.722 E3.0211
G1 X102.448 Y17.642 E3.04717
G1 X105.8 Y17.195 E3.20463
G1 X106.636 Y17.095 E3.24384
G1 X106.918 Y17.065 E3.25704
G1 X107.455 Y17.015 E3.28215
G1 X110.652 Y16.748 E3.43154
G1 X111.689 Y16.676 E3.47994
G1 X111.956 Y16.661 E3.49239
G1 X112.417 Y16.641 E3.51388
G1 X115.829 Y16.529 E3.67284
G1 X116.721 Y16.512 E3.71439
G1 X116.996 Y16.51 E3.72719
G1 X117.455 Y16.514 E3.74856
G1 X120.845 Y16.571 E3.90644
G1 X121.767 Y16.599 E3.94939
G1 X122.063 Y16.612 E3.96319
G1 X122.477 Y16.636 E3.9825
G1 X125.901 Y16.865 E4.14229
G1 X126.751 Y16.933 E4.182
G1 X127.043 Y16.96 E4.19565
G1 X127.516 Y17.011 E4.2178
G1 X130.946 Y17.413 E4.37861
G1 X131.747 Y17.518 E4.41623
G1 X132.017 Y17.557 E4.42893
G1 X132.529 Y17.638 E4.45307
G1 X135.842 Y18.195 E4.6095
G1 X136.739 Y18.358 E4.65195
G1 X137.01 Y18.411 E4.66481
G1 X137.489 Y18.511 E4.6876
G1 X140.672 Y19.209 E4.83933
G1 X141.654 Y19.439 E4.8863
G1 X141.901 Y19.5 E4.89814
G1 X142.369 Y19.622 E4.92066
G1 X145.644 Y20.516 E5.07874
G1 X146.531 Y20.771 E5.12172
G1 X146.8 Y20.852 E5.1348
G1 X147.225 Y20.987 E5.15556
G1 X150.484 Y22.054 E5.31524
G1 X151.286 Y22.329 E5.35472
G1 X151.532 Y22.416 E5.36687
G1 X152.043 Y22.606 E5.39225
G1 X155.191 Y23.811 E5.54921
G1 X156 Y24.135 E5.58979
G1 X156.224 Y24.228 E5.60108
G1 X156.737 Y24.448 E5.62707
G1 X159.819 Y25.809 E5.78396
G1 X160.592 Y26.164 E5.82356
G1 X160.825 Y26.274 E5.83556
G1 X161.355 Y26.534 E5.86305
G1 X164.317 Y28.023 E6.01742
G1 X165.089 Y28.424 E6.05793
G1 X165.333 Y28.555 E6.07082
G1 X165.804 Y28.816 E6.0959
G1 X168.754 Y30.488 E6.25379
G1 X169.465 Y30.904 E6.29215
G1 X169.697 Y31.043 E6.30474
G1 X170.133 Y31.314 E6.32865
G1 X173.009 Y33.138 E6.48723
G1 X173.739 Y33.616 E6.52786
G1 X173.966 Y33.769 E6.5406
G1 X174.389 Y34.062 E6.56456
G1 X177.138 Y36.005 E6.72132
G1 X177.825 Y36.505 E6.76088
G1 X178.054 Y36.677 E6.77422
G1 X178.506 Y37.025 E6.80078
G1 X181.088 Y39.05 E6.95357
G1 X181.816 Y39.637 E6.99712
G1 X182.015 Y39.802 E7.00916
G1 X182.413 Y40.139 E7.03344
G1 X184.803 Y42.213 E7.18079
G1 X185.639 Y42.96 E7.23299
G1 X185.823 Y43.128 E7.24459
G1 X186.171 Y43.455 E7.26683
G1 X188.607 Y45.793 E7.42405
G1 X189.23 Y46.407 E7.46478
G1 X189.44 Y46.619 E7.47868
G1 X189.781 Y46.975 E7.50163
G1 X192.109 Y49.444 E7.65964
G1 X192.7 Y50.09 E7.70041
G1 X192.864 Y50.273 E7.71186
G1 X193.239 Y50.703 E7.73842
G1 X195.283 Y53.099 E7.88507
G1 X195.974 Y53.931 E7.93543
G1 X196.158 Y54.158 E7.94904
G1 X196.429 Y54.504 E7.9695
G1 X198.407 Y57.07 E8.12037
G1 X199.059 Y57.941 E8.17103
G1 X199.329 Y58.314 E8.19247
G1 X201.346 Y61.218 E8.35711
G1 X201.902 Y62.044 E8.40347
G1 X202.034 Y62.245 E8.41467
G1 X202.314 Y62.684 E8.43892
G1 X204.128 Y65.598 E8.59875
G1 X204.562 Y66.318 E8.63789
G1 X204.701 Y66.556 E8.65073
G1 X204.931 Y66.961 E8.67241
G1 X206.577 Y69.928 E8.83041
G1 X207.03 Y70.773 E8.87505
G1 X207.222 Y71.144 E8.8945
G1 X208.79 Y74.327 E9.05972
G1 X209.225 Y75.242 E9.1069
G1 X209.337 Y75.485 E9.11936
G1 X209.542 Y75.95 E9.14302
G1 X210.859 Y79.006 E9.29797
G1 X211.226 Y79.891 E9.34259
G1 X211.322 Y80.131 E9.35462
G1 X211.507 Y80.61 E9.37853
G1 X212.661 Y83.706 E9.53238
G1 X212.989 Y84.622 E9.57769
G1 X213.078 Y84.88 E9.5904
G1 X213.188 Y85.216 E9.60686
G1 X214.257 Y88.581 E9.77127
G1 X214.496 Y89.372 E9.80974
G1 X214.571 Y89.633 E9.82239
G1 X214.703 Y90.115 E9.84566
G1 X215.572 Y93.417 E10.00465
G1 X215.782 Y94.264 E10.04528
G1 X215.842 Y94.522 E10.05762
G1 X215.951 Y95.014 E10.08108
G1 X216.655 Y98.358 E10.2402
G1 X216.805 Y99.123 E10.2765
G1 X216.855 Y99.393 E10.28929
G1 X216.952 Y99.967 E10.3164
G1 X217.487 Y103.332 E10.47505
G1 X217.607 Y104.159 E10.51397
G1 X217.645 Y104.447 E10.52749
G1 X217.692 Y104.849 E10.54634
G1 X218.051 Y108.158 E10.70132
G1 X218.147 Y109.181 E10.74917
G1 X218.168 Y109.437 E10.76113
G1 X218.199 Y109.891 E10.78232
G1 X218.398 Y113.316 E10.94207
G1 X218.436 Y114.175 E10.98211
G1 X218.445 Y114.465 E10.99562
G1 X218.455 Y115.016 E11.02128
G1 X218.482 Y118.352 E11.17662
G1 X218.477 Y119.212 E11.21667
G1 X218.472 Y119.471 E11.22873
G1 X218.455 Y120.017 E11.25417
G1 X218.314 Y123.365 E11.4102
G1 X218.263 Y124.277 E11.45273
G1 X218.246 Y124.526 E11.46436
G1 X218.207 Y125.014 E11.48715
G1 X217.909 Y128.253 E11.63861
G1 X217.797 Y129.311 E11.68815
G1 X217.742 Y129.764 E11.7094
G1 X217.243 Y133.29 E11.87522
G1 X217.103 Y134.193 E11.91777
G1 X217.058 Y134.459 E11.93033
G1 X216.955 Y135.019 E11.95685
G1 X216.313 Y138.336 E12.11417
G1 X216.14 Y139.17 E12.15383
G1 X216.07 Y139.482 E12.16872
G1 X215.944 Y140.013 E12.19413
G1 X215.149 Y143.245 E12.34911
G1 X214.931 Y144.081 E12.38934
G1 X214.854 Y144.361 E12.40286
G1 X214.719 Y144.827 E12.42545
G1 X213.735 Y148.113 E12.58517
G1 X213.483 Y148.912 E12.62419
G1 X213.393 Y149.183 E12.63748
G1 X213.243 Y149.617 E12.65886
G1 X212.108 Y152.814 E12.81683
G1 X211.794 Y153.664 E12.85903
G1 X211.687 Y153.943 E12.87294
G1 X211.518 Y154.364 E12.89407
G1 X210.236 Y157.473 E13.05066
G1 X209.866 Y158.337 E13.09442
G1 X209.753 Y158.593 E13.10745
G1 X209.571 Y158.986 E13.12762
G1 X208.109 Y162.087 E13.28726
G1 X207.732 Y162.858 E13.32722
G1 X207.619 Y163.083 E13.33895
G1 X207.363 Y163.575 E13.36477
G1 X205.783 Y166.532 E13.52088
G1 X205.365 Y167.29 E13.56119
G1 X205.23 Y167.528 E13.57393
G1 X204.947 Y168.01 E13.59996
G1 X203.244 Y170.847 E13.75403
G1 X202.748 Y171.648 E13.7979
G1 X202.599 Y171.883 E13.81086
G1 X202.352 Y172.259 E13.83181
G1 X200.511 Y175.008 E13.98587
G1 X199.989 Y175.765 E14.02868
G1 X199.833 Y175.986 E14.04128
G1 X199.474 Y176.479 E14.06968
G1 X197.498 Y179.13 E14.22364
G1 X196.942 Y179.855 E14.26618
G1 X196.777 Y180.064 E14.27858
G1 X196.459 Y180.458 E14.30216
G1 X194.327 Y183.042 E14.45815
G1 X193.725 Y183.751 E14.50146
G1 X193.539 Y183.965 E14.51466
G1 X193.251 Y184.286 E14.53474
G1 X190.925 Y186.831 E14.69529
G1 X190.363 Y187.429 E14.7335
G1 X190.173 Y187.626 E14.74624
G1 X189.775 Y188.028 E14.77258
G1 X187.488 Y190.297 E14.92259
G1 X186.795 Y190.966 E14.96745
G1 X186.599 Y191.151 E14.98
G1 X186.183 Y191.532 E15.00626
G1 X183.631 Y193.822 E15.16592
G1 X183.02 Y194.353 E15.20362
G1 X182.531 Y194.762 E15.2333
G1 X179.886 Y196.909 E15.39193
G1 X179.12 Y197.514 E15.43738
G1 X178.887 Y197.693 E15.45107
G1 X178.523 Y197.964 E15.4722
G1 X175.781 Y199.969 E15.63037
G1 X175.039 Y200.497 E15.67277
G1 X174.806 Y200.659 E15.68599
G1 X174.41 Y200.925 E15.7082
G1 X171.704 Y202.704 E15.85899
G1 X170.827 Y203.264 E15.90745
G1 X170.564 Y203.427 E15.92185
G1 X170.195 Y203.648 E15.94188
G1 X167.218 Y205.398 E16.10268
G1 X166.505 Y205.804 E16.14089
G1 X166.264 Y205.937 E16.1537
G1 X165.809 Y206.181 E16.17774
G1 X162.838 Y207.735 E16.33387
G1 X162.018 Y208.15 E16.37666
G1 X161.761 Y208.275 E16.38997
G1 X161.351 Y208.469 E16.41109
G1 X158.419 Y209.821 E16.56143
G1 X157.442 Y210.255 E16.61121
G1 X157.22 Y210.351 E16.62247
G1 X156.715 Y210.561 E16.64794
G1 X153.783 Y211.74 E16.79509
G1 X152.772 Y212.131 E16.84557
G1 X152.527 Y212.223 E16.85775
G1 X152.074 Y212.384 E16.88014
G1 X148.84 Y213.499 E17.03943
G1 X148.036 Y213.764 E17.07884
G1 X147.771 Y213.848 E17.09179
G1 X147.266 Y214 E17.11635
G1 X144.061 Y214.928 E17.27171
G1 X143.186 Y215.169 E17.31398
G1 X142.927 Y215.237 E17.32644
G1 X142.408 Y215.366 E17.35135
G1 X139.268 Y216.11 E17.50161
G1 X138.308 Y216.324 E17.54741
G1 X138.048 Y216.379 E17.55978
G1 X137.527 Y216.48 E17.58449
G1 X134.145 Y217.105 E17.74464
G1 X133.353 Y217.239 E17.78204
G1 X133.106 Y217.278 E17.79368
G1 X132.552 Y217.358 E17.81975
G1 X129.2 Y217.805 E17.97721
G1 X128.364 Y217.905 E18.01642
G1 X128.082 Y217.935 E18.02962
G1 X127.545 Y217.985 E18.05474
G1 X124.348 Y218.252 E18.20412
G1 X123.311 Y218.324 E18.25252
G1 X123.044 Y218.339 E18.26498
G1 X122.583 Y218.359 E18.28646
G1 X119.171 Y218.471 E18.44543
G1 X118.279 Y218.488 E18.48697
G1 X118.004 Y218.49 E18.49977
G1 X117.545 Y218.486 E18.52115
G1 X114.155 Y218.429 E18.67902
G1 X113.233 Y218.401 E18.72197
G1 X112.937 Y218.388 E18.73577
G1 X112.523 Y218.364 E18.75508
G1 X109.099 Y218.135 E18.91487
G1 X108.249 Y218.067 E18.95458
G1 X107.957 Y218.04 E18.96823
G1 X107.484 Y217.989 E18.99039
G1 X104.054 Y217.587 E19.15119
G1 X103.253 Y217.482 E19.18881
G1 X102.983 Y217.443 E19.20151
G1 X102.471 Y217.362 E19.22565
G1 X99.158 Y216.805 E19.38208
G1 X98.261 Y216.642 E19.42454
G1 X97.99 Y216.589 E19.43739
G1 X97.511 Y216.489 E19.46018
G1 X94.328 Y215.791 E19.61191
G1 X93.346 Y215.561 E19.65888
G1 X93.099 Y215.5 E19.67073
G1 X92.631 Y215.378 E19.69325
G1 X89.356 Y214.484 E19.85132
G1 X88.469 Y214.229 E19.8943
G1 X88.2 Y214.148 E19.90738
G1 X87.775 Y214.013 E19.92814
G1 X84.516 Y212.946 E20.08782
G1 X83.714 Y212.671 E20.1273
G1 X83.468 Y212.584 E20.13945
G1 X82.957 Y212.394 E20.16484
G1 X79.809 Y211.189 E20.32179
G1 X79 Y210.865 E20.36237
G1 X78.776 Y210.772 E20.37367
G1 X78.263 Y210.552 E20.39966
G1 X75.181 Y209.191 E20.55654
G1 X74.408 Y208.836 E20.59615
G1 X74.175 Y208.726 E20.60814
G1 X73.645 Y208.466 E20.63563
G1 X70.683 Y206.977 E20.79
G1 X69.911 Y206.576 E20.83051
G1 X69.667 Y206.445 E20.84341
G1 X69.196 Y206.184 E20.86848
G1 X66.246 Y204.512 E21.02637
G1 X65.535 Y204.096 E21.06473
G1 X65.303 Y203.957 E21.07733
G1 X64.867 Y203.686 E21.10123
G1 X61.991 Y201.862 E21.25981
G1 X61.261 Y201.384 E21.30044
G1 X61.034 Y201.231 E21.31319
G1 X60.611 Y200.938 E21.33715
G1 X57.862 Y198.995 E21.4939
G1 X57.175 Y198.495 E21.53346
G1 X56.946 Y198.323 E21.5468
G1 X56.494 Y197.975 E21.57336
G1 X53.912 Y195.95 E21.72616
G1 X53.184 Y195.363 E21.7697
G1 X52.985 Y195.198 E21.78174
G1 X52.587 Y194.861 E21.80602
G1 X50.072 Y192.677 E21.96112
G1 X49.361 Y192.041 E22.00554
G1 X48.926 Y191.637 E22.03319
G1 X46.499 Y189.31 E22.18975
G1 X45.769 Y188.591 E22.23746
G1 X45.559 Y188.379 E22.25136
G1 X45.219 Y188.025 E22.27421
G1 X42.891 Y185.556 E22.43223
G1 X42.3 Y184.91 E22.473
G1 X42.128 Y184.718 E22.485
G1 X41.76 Y184.295 E22.51111
G1 X39.62 Y181.785 E22.6647
G1 X39.026 Y181.069 E22.70802
G1 X38.842 Y180.842 E22.72162
G1 X38.571 Y180.496 E22.74209
G1 X36.491 Y177.796 E22.90079
G1 X35.939 Y177.057 E22.94374
G1 X35.641 Y176.643 E22.96749
G1 X33.654 Y173.782 E23.12969
G1 X33.096 Y172.953 E23.17622
G1 X32.966 Y172.755 E23.18725
G1 X32.685 Y172.315 E23.21156
G1 X30.872 Y169.402 E23.37133
G1 X30.439 Y168.684 E23.41037
G1 X30.299 Y168.444 E23.42331
G1 X30.069 Y168.039 E23.445
G1 X28.423 Y165.072 E23.60299
G1 X27.97 Y164.227 E23.64763
G1 X27.859 Y164.015 E23.65878
G1 X27.674 Y163.648 E23.67791
G1 X26.135 Y160.517 E23.84037
G1 X25.776 Y159.76 E23.87938
G1 X25.658 Y159.504 E23.8925
G1 X25.458 Y159.051 E23.91556
G1 X24.141 Y155.994 E24.07056
G1 X23.774 Y155.109 E24.11517
G1 X23.678 Y154.869 E24.1272
G1 X23.493 Y154.39 E24.15111
G1 X22.339 Y151.294 E24.30497
G1 X22.011 Y150.378 E24.35027
G1 X21.916 Y150.103 E24.36382
G1 X21.793 Y149.727 E24.38224
G1 X20.744 Y146.421 E24.54375
G1 X20.505 Y145.631 E24.58218
G1 X20.429 Y145.367 E24.59497
G1 X20.297 Y144.884 E24.61828
G1 X19.429 Y141.585 E24.77713
G1 X19.219 Y140.739 E24.81772
G1 X19.158 Y140.478 E24.8302
G1 X19.049 Y139.986 E24.85366
G1 X18.345 Y136.643 E25.01274
G1 X18.189 Y135.848 E25.05047
G1 X18.135 Y135.555 E25.06434
G1 X18.048 Y135.033 E25.08898
G1 X17.513 Y131.666 E25.24773
G1 X17.393 Y130.838 E25.28669
G1 X17.356 Y130.556 E25.29993
G1 X17.308 Y130.151 E25.31892
G1 X16.949 Y126.842 E25.47391
G1 X16.853 Y125.819 E25.52175
G1 X16.831 Y125.561 E25.53381
G1 X16.801 Y125.109 E25.5549
G1 X16.602 Y121.684 E25.71465
G1 X16.564 Y120.825 E25.75469
G1 X16.555 Y120.535 E25.7682
G1 X16.545 Y119.984 E25.79386
G1 X16.518 Y116.646 E25.9493
G1 X16.523 Y115.789 E25.9892
G1 X16.528 Y115.53 E26.00127
G1 X16.545 Y114.984 E26.0267
G1 X16.686 Y111.635 E26.18278
G1 X16.737 Y110.723 E26.22532
G1 X16.754 Y110.471 E26.23708
G1 X16.793 Y109.987 E26.25969
G1 X17.106 Y106.596 E26.41826
G1 X17.202 Y105.691 E26.46064
G1 X17.266 Y105.175 E26.48485
G1 X17.757 Y101.709 E26.64785
G1 X17.902 Y100.776 E26.69182
G1 X17.949 Y100.499 E26.7049
G1 X18.046 Y99.97 E26.72994
G1 X18.658 Y96.808 E26.87991
G1 X18.864 Y95.817 E26.92704
G1 X18.929 Y95.524 E26.94102
G1 X19.057 Y94.986 E26.96677
G1 X19.85 Y91.76 E27.12145
G1 X20.067 Y90.926 E27.16158
G1 X20.144 Y90.648 E27.17501
G1 X20.281 Y90.173 E27.19803
G1 X21.265 Y86.887 E27.35776
G1 X21.517 Y86.088 E27.39677
G1 X21.607 Y85.817 E27.41007
G1 X21.757 Y85.383 E27.43145
G1 X22.892 Y82.186 E27.58942
G1 X23.206 Y81.336 E27.63161
G1 X23.313 Y81.057 E27.64552
G1 X23.482 Y80.636 E27.66665
G1 X24.764 Y77.527 E27.82324
G1 X25.134 Y76.663 E27.86701
G1 X25.247 Y76.407 E27.88004
G1 X25.429 Y76.014 E27.9002
G1 X26.891 Y72.913 E28.05984
G1 X27.268 Y72.142 E28.0998
G1 X27.381 Y71.917 E28.11153
G1 X27.637 Y71.425 E28.13735
G1 X29.217 Y68.468 E28.29347
G1 X29.635 Y67.71 E28.33377
G1 X29.77 Y67.472 E28.34651
G1 X30.053 Y66.99 E28.37254
G1 X31.756 Y64.153 E28.52662
G1 X32.252 Y63.352 E28.57049
G1 X32.401 Y63.117 E28.58344
G1 X32.648 Y62.741 E28.60439
G1 X34.489 Y59.992 E28.75845
G1 X35.011 Y59.235 E28.80127
G1 X35.167 Y59.014 E28.81386
G1 X35.526 Y58.521 E28.84226
G1 X37.502 Y55.87 E28.99622
G1 X38.058 Y55.145 E29.03877
G1 X38.223 Y54.936 E29.05116
G1 X38.541 Y54.542 E29.07474
G1 X40.673 Y51.958 E29.23073
G1 X41.275 Y51.249 E29.27404
G1 X41.461 Y51.035 E29.28724
G1 X41.749 Y50.714 E29.30732
G1 X44.075 Y48.169 E29.46787
G1 X44.637 Y47.571 E29.50608
G1 X44.827 Y47.374 E29.51882
G1 X45.225 Y46.972 E29.54517
G0 F6000 X45.506 Y47.256
G1 F1200 X47.793 Y44.987 E29.69518
G1 X48.482 Y44.322 E29.73977
G1 X48.671 Y44.144 E29.75185
G1 X49.084 Y43.766 E29.77792
G1 X51.632 Y41.48 E29.93732
G1 X52.243 Y40.949 E29.97502
G1 X52.423 Y40.796 E29.98602
G1 X52.819 Y40.468 E30.00996
G1 X55.479 Y38.312 E30.1694
G1 X56.128 Y37.8 E30.20789
G1 X56.352 Y37.627 E30.22107
G1 X56.632 Y37.418 E30.23734
G1 X59.451 Y35.356 E30.39997
G1 X60.193 Y34.828 E30.44237
G1 X60.418 Y34.673 E30.4551
G1 X60.81 Y34.41 E30.47708
