;FLAVOR:Marlin
;TIME:9482
;Filament used: 6.50339m
;Layer height: 0.2
;MINX:9.508
;MINY:78.509
;MINZ:0.2
;MAXX:225.483
;MAXY:156.489
;MAXZ:8
;Generated with Cura_SteamEngine master
M140 S50
M105
M190 S50
M104 S200
M105
M109 S200
M82 ;absolute extrusion mode
; Ender 3 Custom Start G-code
G92 E0 ; Reset Extruder
G28 ; Home all axes
G1 Z2.0 F3000 ; Move Z Axis up little to prevent scratching of Heat Bed
G1 X0.1 Y20 Z0.3 F5000.0 ; Move to start position
G1 X0.1 Y200.0 Z0.3 F1500.0 E15 ; Draw the first line
G1 X0.4 Y200.0 Z0.3 F5000.0 ; Move to side a little
G1 X0.4 Y20 Z0.3 F1500.0 E30 ; Draw the second line
G92 E0 ; Reset Extruder
G1 Z2.0 F3000 ; Move Z Axis up little to prevent scratching of Heat Bed
G1 X5 Y20 Z0.3 F5000.0 ; Move over to prevent blob squish
G92 E0
G92 E0
G1 F2700 E-5
;LAYER_COUNT:40
;LAYER:0
M107
G0 F6000 X25.683 Y96.292 Z0.2
;TYPE:SKIRT
G1 F2700 E0
G1 F1200 X26.145 Y96.171 E0.01588
G1 X26.615 Y96.059 E0.03195
G1 X27.172 Y95.939 E0.05091
G1 X27.723 Y95.835 E0.06956
G1 X28.227 Y95.753 E0.08654
G1 X28.785 Y95.677 E0.10527
G1 X29.355 Y95.614 E0.12434
G1 X29.89 Y95.568 E0.1422
G1 X30.445 Y95.534 E0.1607
G1 X30.97 Y95.514 E0.17817
G1 X32.085 Y95.5 E0.21526
G1 X95.992 Y95.5 E2.34081
G1 X98.6 Y95.463 E2.42757
G1 X101.121 Y95.356 E2.51149
G1 X103.616 Y95.179 E2.59468
G1 X106.116 Y94.931 E2.67824
G1 X108.609 Y94.612 E2.76183
G1 X111.102 Y94.221 E2.84577
G1 X113.592 Y93.758 E2.93
G1 X116.056 Y93.228 E3.01383
G1 X118.458 Y92.639 E3.09609
G1 X120.914 Y91.963 E3.18081
G1 X123.324 Y91.225 E3.26464
G1 X125.716 Y90.418 E3.34861
G1 X128.056 Y89.555 E3.43156
G1 X130.412 Y88.609 E3.516
G1 X132.672 Y87.626 E3.59797
G1 X136.172 Y85.957 E3.72694
G1 X136.951 Y85.567 E3.75592
G1 X137.236 Y85.429 E3.76645
G1 X138.103 Y85.027 E3.79823
G1 X139.978 Y84.199 E3.86641
G1 X140.278 Y84.072 E3.87724
G1 X140.466 Y83.996 E3.88399
G1 X142.369 Y83.246 E3.95202
G1 X142.725 Y83.112 E3.96467
G1 X142.94 Y83.034 E3.97228
G1 X145.006 Y82.316 E4.04502
G1 X145.293 Y82.222 E4.05507
G1 X147.294 Y81.606 E4.12471
G1 X147.513 Y81.541 E4.1323
G1 X148.072 Y81.384 E4.15161
G1 X150.015 Y80.867 E4.21849
G1 X150.726 Y80.693 E4.24283
G1 X152.391 Y80.314 E4.29963
G1 X153.153 Y80.152 E4.32554
G1 X153.359 Y80.11 E4.33253
G1 X155.04 Y79.788 E4.38946
G1 X155.855 Y79.645 E4.41698
G1 X156.052 Y79.612 E4.42362
G1 X157.738 Y79.35 E4.48037
G1 X158.543 Y79.238 E4.5074
G1 X160.44 Y79.006 E4.57097
G1 X160.632 Y78.984 E4.5774
G1 X161.494 Y78.896 E4.60622
G1 X163.31 Y78.738 E4.66685
G1 X163.96 Y78.692 E4.68852
G1 X165.805 Y78.592 E4.74997
G1 X166.763 Y78.554 E4.78186
G1 X168.471 Y78.516 E4.83868
G1 X168.654 Y78.513 E4.84477
G1 X169.451 Y78.509 E4.87128
G1 X171.312 Y78.529 E4.93318
G1 X171.491 Y78.532 E4.93914
G1 X172.408 Y78.559 E4.96965
G1 X174.23 Y78.642 E5.03031
G1 X174.983 Y78.688 E5.0554
G1 X176.786 Y78.829 E5.11555
G1 X177.661 Y78.91 E5.14478
G1 X179.552 Y79.121 E5.20807
G1 X180.41 Y79.231 E5.23684
G1 X180.59 Y79.255 E5.24288
G1 X182.24 Y79.497 E5.29834
G1 X183.077 Y79.633 E5.32655
G1 X183.268 Y79.666 E5.33299
G1 X184.931 Y79.969 E5.38922
G1 X185.706 Y80.123 E5.4155
G1 X185.893 Y80.162 E5.42185
G1 X187.608 Y80.536 E5.48023
G1 X187.81 Y80.582 E5.48712
G1 X188.534 Y80.756 E5.51189
G1 X190.223 Y81.189 E5.56988
G1 X190.442 Y81.247 E5.57742
G1 X191.016 Y81.408 E5.59724
G1 X192.752 Y81.92 E5.65744
G1 X193.302 Y82.092 E5.67661
G1 X195.323 Y82.771 E5.74752
G1 X195.807 Y82.942 E5.76459
G1 X196.012 Y83.017 E5.77185
G1 X197.934 Y83.749 E5.84026
G1 X198.27 Y83.884 E5.8523
G1 X199.764 Y84.512 E5.9062
G1 X200.069 Y84.646 E5.91728
G1 X201.265 Y85.192 E5.96101
G1 X201.538 Y85.322 E5.97107
G1 X202.805 Y85.943 E6.018
G1 X203.093 Y86.089 E6.02874
G1 X204.313 Y86.732 E6.07461
G1 X204.596 Y86.887 E6.08534
G1 X205.739 Y87.533 E6.12901
G1 X206.051 Y87.716 E6.14104
G1 X207.203 Y88.418 E6.18591
G1 X207.479 Y88.591 E6.19674
G1 X208.567 Y89.299 E6.23992
G1 X208.885 Y89.514 E6.25268
G1 X209.981 Y90.283 E6.29721
G1 X210.272 Y90.495 E6.30919
G1 X211.238 Y91.221 E6.34938
G1 X211.541 Y91.457 E6.36215
G1 X212.524 Y92.251 E6.40418
G1 X212.834 Y92.511 E6.41764
G1 X213.768 Y93.324 E6.45882
G1 X214.079 Y93.605 E6.47277
G1 X214.991 Y94.462 E6.51439
G1 X215.288 Y94.752 E6.5282
G1 X216.099 Y95.574 E6.5666
G1 X216.361 Y95.849 E6.57924
G1 X217.001 Y96.544 E6.61066
G1 X217.231 Y96.802 E6.62216
G1 X217.664 Y97.303 E6.64418
G1 X217.85 Y97.524 E6.65379
G1 X218.295 Y98.067 E6.67714
G1 X218.493 Y98.316 E6.68772
G1 X219.005 Y98.979 E6.71558
G1 X219.209 Y99.251 E6.72689
G1 X219.613 Y99.809 E6.7498
G1 X219.79 Y100.061 E6.76004
G1 X220.185 Y100.64 E6.78336
G1 X220.382 Y100.94 E6.79529
G1 X220.809 Y101.612 E6.82177
G1 X220.984 Y101.897 E6.8329
G1 X221.349 Y102.512 E6.85668
G1 X221.528 Y102.825 E6.86868
G1 X221.858 Y103.425 E6.89145
G1 X222.019 Y103.728 E6.90286
G1 X222.325 Y104.328 E6.92527
G1 X222.493 Y104.672 E6.938
G1 X222.825 Y105.383 E6.9641
G1 X222.98 Y105.73 E6.97674
G1 X223.237 Y106.334 E6.99857
G1 X223.376 Y106.676 E7.01085
G1 X223.592 Y107.235 E7.03078
G1 X223.722 Y107.59 E7.04335
G1 X223.977 Y108.324 E7.0692
G1 X224.106 Y108.722 E7.08311
G1 X224.317 Y109.413 E7.10714
G1 X224.424 Y109.786 E7.12005
G1 X224.576 Y110.355 E7.13964
G1 X224.671 Y110.737 E7.15273
G1 X224.83 Y111.431 E7.17641
G1 X224.916 Y111.839 E7.19028
G1 X225.043 Y112.509 E7.21296
G1 X225.109 Y112.9 E7.22615
G1 X225.195 Y113.464 E7.24513
G1 X225.249 Y113.867 E7.25865
G1 X225.338 Y114.642 E7.2846
G1 X225.38 Y115.08 E7.29923
G1 X225.422 Y115.644 E7.31804
G1 X225.444 Y116.037 E7.33113
G1 X225.475 Y116.841 E7.35789
G1 X225.483 Y117.265 E7.372
G1 X225.483 Y117.845 E7.39129
G1 X225.478 Y118.191 E7.4028
G1 X225.469 Y118.477 E7.41232
G1 X225.448 Y118.881 E7.42577
G1 X225.369 Y120.037 E7.46431
G1 X225.337 Y120.414 E7.47689
G1 X225.292 Y120.851 E7.49151
G1 X225.229 Y121.351 E7.50827
G1 X225.117 Y122.1 E7.53346
G1 X225.029 Y122.605 E7.55051
G1 X224.864 Y123.44 E7.57881
G1 X224.756 Y123.932 E7.59557
G1 X224.561 Y124.726 E7.62276
G1 X224.443 Y125.166 E7.63791
G1 X224.204 Y125.99 E7.66645
G1 X224.046 Y126.488 E7.68383
G1 X223.778 Y127.271 E7.71135
G1 X223.62 Y127.703 E7.72665
G1 X223.318 Y128.478 E7.75432
G1 X223.135 Y128.921 E7.77026
G1 X222.774 Y129.74 E7.80003
G1 X222.568 Y130.179 E7.81616
G1 X222.082 Y131.159 E7.85254
G1 X221.875 Y131.55 E7.86725
G1 X221.473 Y132.278 E7.89491
G1 X221.308 Y132.568 E7.90601
G1 X221.151 Y132.833 E7.91626
G1 X221.032 Y133.029 E7.92388
G1 X220.565 Y133.781 E7.95332
G1 X220.349 Y134.118 E7.96664
G1 X220.171 Y134.383 E7.97725
G1 X219.626 Y135.173 E8.00918
G1 X219.422 Y135.461 E8.02091
G1 X219.265 Y135.673 E8.02969
G1 X218.592 Y136.56 E8.06672
G1 X218.299 Y136.929 E8.08239
G1 X217.627 Y137.74 E8.11742
G1 X217.416 Y137.988 E8.12825
G1 X217.084 Y138.363 E8.14491
G1 X216.48 Y139.026 E8.17474
G1 X216.112 Y139.416 E8.19258
G1 X215.744 Y139.794 E8.21012
G1 X215.067 Y140.469 E8.24192
G1 X214.697 Y140.825 E8.259
G1 X214.259 Y141.233 E8.27891
G1 X213.502 Y141.917 E8.31284
G1 X213.265 Y142.124 E8.32331
G1 X212.725 Y142.583 E8.34688
G1 X211.96 Y143.214 E8.37986
G1 X211.721 Y143.405 E8.39004
G1 X211.143 Y143.854 E8.41438
G1 X210.308 Y144.482 E8.44913
G1 X210.03 Y144.684 E8.46056
G1 X209.237 Y145.241 E8.49279
G1 X208.492 Y145.749 E8.52278
G1 X208.124 Y145.992 E8.53745
G1 X207.115 Y146.632 E8.57719
G1 X206.346 Y147.105 E8.60722
G1 X206.128 Y147.236 E8.61568
G1 X205.773 Y147.443 E8.62935
G1 X205.015 Y147.875 E8.65836
G1 X204.055 Y148.404 E8.69482
G1 X203.648 Y148.62 E8.71015
G1 X202.545 Y149.181 E8.7513
G1 X201.526 Y149.68 E8.78904
G1 X201.263 Y149.804 E8.79871
G1 X200.395 Y150.199 E8.83043
G1 X198.475 Y151.026 E8.89996
G1 X198.14 Y151.164 E8.91201
G1 X197.907 Y151.257 E8.92036
G1 X196.012 Y151.981 E8.98783
G1 X195.559 Y152.145 E9.00385
G1 X193.453 Y152.855 E9.07777
G1 X192.977 Y153.007 E9.09439
G1 X192.783 Y153.066 E9.10114
G1 X190.903 Y153.62 E9.16632
G1 X190.693 Y153.68 E9.17359
G1 X190.141 Y153.829 E9.1926
G1 X188.31 Y154.295 E9.25544
G1 X187.661 Y154.45 E9.27764
G1 X187.446 Y154.499 E9.28497
G1 X185.595 Y154.898 E9.34795
G1 X185.362 Y154.946 E9.35586
G1 X184.597 Y155.092 E9.38177
G1 X182.688 Y155.43 E9.44625
G1 X182.065 Y155.529 E9.46723
G1 X180.237 Y155.789 E9.52864
G1 X179.245 Y155.914 E9.56189
G1 X179.049 Y155.937 E9.56846
G1 X177.185 Y156.134 E9.6308
G1 X176.267 Y156.213 E9.66145
G1 X174.562 Y156.335 E9.7183
G1 X173.666 Y156.385 E9.74815
G1 X171.743 Y156.459 E9.81215
G1 X171.547 Y156.465 E9.81868
G1 X170.624 Y156.482 E9.84938
G1 X168.993 Y156.489 E9.90363
G1 X168.105 Y156.479 E9.93316
G1 X166.199 Y156.424 E9.99658
G1 X165.304 Y156.384 E10.02638
G1 X163.409 Y156.266 E10.08953
G1 X162.473 Y156.192 E10.12076
G1 X162.283 Y156.175 E10.12711
G1 X160.299 Y155.979 E10.19341
G1 X159.489 Y155.883 E10.22054
G1 X157.734 Y155.649 E10.27943
G1 X156.935 Y155.53 E10.3063
G1 X154.961 Y155.196 E10.37289
G1 X154.115 Y155.039 E10.40151
G1 X153.917 Y155 E10.40822
G1 X152.035 Y154.61 E10.47215
G1 X151.507 Y154.491 E10.49015
G1 X149.56 Y154.017 E10.5568
G1 X149.329 Y153.958 E10.56473
G1 X148.738 Y153.799 E10.58508
G1 X146.859 Y153.265 E10.65005
G1 X146.639 Y153.2 E10.65768
G1 X146.097 Y153.032 E10.67655
G1 X144.103 Y152.379 E10.74634
G1 X143.798 Y152.274 E10.75707
G1 X143.562 Y152.19 E10.7654
G1 X141.751 Y151.52 E10.82963
G1 X141.337 Y151.359 E10.8444
G1 X139.722 Y150.698 E10.90244
G1 X139.411 Y150.565 E10.91369
G1 X138.146 Y150 E10.95977
G1 X137.857 Y149.865 E10.97038
G1 X136.387 Y149.156 E11.02466
G1 X135.976 Y148.951 E11.03994
G1 X133.669 Y147.837 E11.12515
G1 X131.35 Y146.795 E11.2097
G1 X129.044 Y145.837 E11.29276
G1 X126.627 Y144.912 E11.37883
G1 X124.327 Y144.107 E11.45988
G1 X121.922 Y143.341 E11.54383
G1 X119.492 Y142.64 E11.62795
G1 X117.043 Y142.009 E11.71206
G1 X114.59 Y141.45 E11.79574
G1 X112.117 Y140.96 E11.87959
G1 X109.668 Y140.546 E11.9622
G1 X107.13 Y140.191 E12.04744
G1 X104.682 Y139.919 E12.12936
G1 X102.14 Y139.709 E12.2142
G1 X99.658 Y139.573 E12.29687
G1 X95.943 Y139.499 E12.42046
G1 X31.959 Y139.498 E14.54858
G1 X31.172 Y139.489 E14.57475
G1 X30.845 Y139.481 E14.58563
G1 X30.335 Y139.46 E14.60261
G1 X29.803 Y139.425 E14.62034
G1 X29.247 Y139.375 E14.63891
G1 X28.724 Y139.315 E14.65642
G1 X28.24 Y139.248 E14.67267
G1 X27.723 Y139.164 E14.69009
G1 X27.141 Y139.055 E14.70978
G1 X26.535 Y138.924 E14.73041
G1 X25.995 Y138.791 E14.7489
G1 X25.49 Y138.654 E14.76631
G1 X24.952 Y138.494 E14.78498
G1 X24.428 Y138.323 E14.80331
G1 X23.932 Y138.148 E14.8208
G1 X23.422 Y137.954 E14.83895
G1 X22.924 Y137.75 E14.85685
G1 X22.433 Y137.535 E14.87468
G1 X21.92 Y137.295 E14.89351
G1 X21.435 Y137.053 E14.91154
G1 X20.957 Y136.8 E14.92953
G1 X20.449 Y136.514 E14.94892
G1 X19.975 Y136.23 E14.9673
G1 X19.541 Y135.956 E14.98437
G1 X19.079 Y135.649 E15.00282
G1 X18.6 Y135.311 E15.02232
G1 X18.166 Y134.988 E15.04031
G1 X17.744 Y134.658 E15.05813
G1 X17.315 Y134.305 E15.07661
G1 X16.898 Y133.944 E15.09495
G1 X16.495 Y133.577 E15.11308
G1 X16.113 Y133.212 E15.13065
G1 X15.728 Y132.826 E15.14879
G1 X15.339 Y132.415 E15.16761
G1 X14.98 Y132.016 E15.18546
G1 X14.651 Y131.633 E15.20225
G1 X14.305 Y131.211 E15.2204
G1 X13.934 Y130.734 E15.2405
G1 X13.601 Y130.279 E15.25926
G1 X13.296 Y129.839 E15.27706
G1 X12.986 Y129.369 E15.29579
G1 X12.692 Y128.898 E15.31426
G1 X12.435 Y128.462 E15.33109
G1 X12.183 Y128.011 E15.34827
G1 X11.908 Y127.49 E15.36787
G1 X11.648 Y126.965 E15.38735
G1 X11.42 Y126.471 E15.40545
G1 X11.213 Y125.992 E15.4228
G1 X11.01 Y125.491 E15.44078
G1 X10.813 Y124.967 E15.4594
G1 X10.636 Y124.457 E15.47736
G1 X10.465 Y123.921 E15.49607
G1 X10.308 Y123.381 E15.51477
G1 X10.17 Y122.859 E15.53273
G1 X10.044 Y122.33 E15.55082
G1 X9.929 Y121.782 E15.56944
G1 X9.828 Y121.236 E15.58791
G1 X9.742 Y120.697 E15.60607
G1 X9.668 Y120.145 E15.62459
G1 X9.609 Y119.607 E15.64259
G1 X9.564 Y119.073 E15.66041
G1 X9.531 Y118.518 E15.67891
G1 X9.513 Y117.981 E15.69678
G1 X9.508 Y117.469 E15.71381
G1 X9.515 Y116.929 E15.73177
G1 X9.537 Y116.367 E15.75048
G1 X9.57 Y115.853 E15.76761
G1 X9.616 Y115.331 E15.78504
G1 X9.682 Y114.743 E15.80472
G1 X9.759 Y114.182 E15.82355
G1 X9.843 Y113.672 E15.84074
G1 X9.9 Y113.353 E15.85152
G1 X9.967 Y113.027 E15.86259
G1 X10.071 Y112.552 E15.87876
G1 X10.193 Y112.049 E15.89598
G1 X10.339 Y111.506 E15.91468
G1 X10.506 Y110.945 E15.93415
G1 X10.674 Y110.431 E15.95213
G1 X10.847 Y109.942 E15.96938
G1 X11.043 Y109.426 E15.98774
G1 X11.249 Y108.922 E16.00585
G1 X11.463 Y108.433 E16.0236
G1 X11.705 Y107.916 E16.04259
G1 X11.959 Y107.409 E16.06145
G1 X12.213 Y106.932 E16.07943
G1 X12.473 Y106.471 E16.09703
G1 X12.737 Y106.027 E16.11421
G1 X13.027 Y105.565 E16.13235
G1 X13.345 Y105.087 E16.15145
G1 X13.681 Y104.609 E16.17088
G1 X14.016 Y104.157 E16.18959
G1 X14.307 Y103.785 E16.2053
G1 X14.517 Y103.525 E16.21642
G1 X14.695 Y103.314 E16.2256
G1 X15.039 Y102.916 E16.2431
G1 X15.406 Y102.512 E16.26125
G1 X15.788 Y102.112 E16.27965
G1 X16.182 Y101.72 E16.29813
G1 X16.593 Y101.331 E16.31695
G1 X17.002 Y100.962 E16.33528
G1 X17.39 Y100.63 E16.35226
G1 X17.819 Y100.281 E16.37065
G1 X18.293 Y99.915 E16.39057
G1 X18.737 Y99.59 E16.40887
G1 X19.157 Y99.298 E16.42589
G1 X19.597 Y99.007 E16.44343
G1 X20.076 Y98.707 E16.46223
G1 X20.552 Y98.426 E16.48061
G1 X20.946 Y98.206 E16.49562
G1 X21.257 Y98.038 E16.50738
G1 X21.552 Y97.887 E16.5184
G1 X22.012 Y97.66 E16.53546
G1 X22.533 Y97.419 E16.55456
G1 X23.056 Y97.194 E16.57349
G1 X23.509 Y97.011 E16.58974
G1 X24.003 Y96.824 E16.60731
G1 X24.565 Y96.629 E16.6271
G1 X24.996 Y96.492 E16.64214
G1 X25.35 Y96.385 E16.65444
G1 X25.683 Y96.292 E16.66594
G0 F6000 X25.784 Y96.679
G1 F1200 X26.246 Y96.558 E16.68182
G1 X26.7 Y96.45 E16.69734
G1 X27.257 Y96.33 E16.71629
G1 X27.787 Y96.23 E16.73423
G1 X28.291 Y96.148 E16.75122
G1 X28.829 Y96.074 E16.76928
G1 X29.399 Y96.011 E16.78835
G1 X29.915 Y95.967 E16.80558
G1 X30.47 Y95.933 E16.82407
G1 X30.976 Y95.914 E16.84091
G1 X32.085 Y95.9 E16.8778
G1 X95.998 Y95.9 E19.00356
G1 X98.623 Y95.863 E19.09087
G1 X101.131 Y95.756 E19.17437
G1 X103.651 Y95.578 E19.25839
G1 X106.166 Y95.329 E19.34245
G1 X108.655 Y95.01 E19.42591
G1 X111.207 Y94.609 E19.51183
G1 X113.638 Y94.157 E19.59407
G1 X116.13 Y93.621 E19.67885
G1 X118.587 Y93.019 E19.76299
G1 X121.032 Y92.346 E19.84733
G1 X123.432 Y91.611 E19.93082
G1 X125.846 Y90.797 E20.01555
G1 X128.196 Y89.93 E20.09886
G1 X130.584 Y88.971 E20.18445
G1 X132.849 Y87.985 E20.26661
G1 X136.283 Y86.349 E20.39313
G1 X137.13 Y85.924 E20.42465
G1 X137.405 Y85.791 E20.43481
G1 X138.073 Y85.48 E20.45932
G1 X138.265 Y85.393 E20.46633
G1 X140.14 Y84.565 E20.5345
G1 X140.431 Y84.442 E20.54501
G1 X140.612 Y84.368 E20.55151
G1 X142.515 Y83.618 E20.61954
G1 X142.864 Y83.486 E20.63195
G1 X144.944 Y82.76 E20.70523
G1 X145.418 Y82.603 E20.72184
G1 X145.605 Y82.543 E20.72837
G1 X147.412 Y81.988 E20.79124
G1 X148.006 Y81.817 E20.8118
G1 X148.175 Y81.77 E20.81763
G1 X149.926 Y81.303 E20.87791
G1 X150.62 Y81.13 E20.9017
G1 X150.814 Y81.083 E20.90834
G1 X152.479 Y80.704 E20.96513
G1 X153.236 Y80.543 E20.99087
G1 X153.434 Y80.503 E20.99759
G1 X155.115 Y80.181 E21.05452
G1 X155.923 Y80.039 E21.0818
G1 X157.799 Y79.746 E21.14495
G1 X157.98 Y79.719 E21.15104
G1 X158.597 Y79.634 E21.17176
G1 X160.488 Y79.403 E21.23512
G1 X161.356 Y79.311 E21.26415
G1 X161.528 Y79.294 E21.2699
G1 X163.339 Y79.137 E21.33036
G1 X164.169 Y79.08 E21.35803
G1 X165.827 Y78.991 E21.41325
G1 X166.953 Y78.948 E21.45073
G1 X168.48 Y78.915 E21.50153
G1 X169.453 Y78.909 E21.5339
G1 X171.308 Y78.929 E21.5956
G1 X172.206 Y78.952 E21.62547
G1 X174.035 Y79.033 E21.68637
G1 X174.958 Y79.088 E21.71712
G1 X175.147 Y79.101 E21.72342
G1 X176.911 Y79.241 E21.78228
G1 X177.624 Y79.308 E21.8061
G1 X179.507 Y79.518 E21.86911
G1 X180.359 Y79.627 E21.89768
G1 X182.182 Y79.893 E21.95896
G1 X183.013 Y80.028 E21.98696
G1 X184.859 Y80.363 E22.04936
G1 X185.628 Y80.515 E22.07543
G1 X185.808 Y80.552 E22.08154
G1 X187.523 Y80.926 E22.13992
G1 X188.255 Y81.099 E22.16494
G1 X188.434 Y81.143 E22.17107
G1 X190.123 Y81.576 E22.22907
G1 X190.334 Y81.632 E22.23633
G1 X190.903 Y81.792 E22.25599
G1 X192.639 Y82.304 E22.31618
G1 X193.182 Y82.474 E22.33511
G1 X193.363 Y82.533 E22.34144
