;FLAVOR:Marlin
;TIME:11359
;Filament used: 8.97128m
;Layer height: 0.2
;MINX:3.083
;MINY:76.505
;MINZ:0.2
;MAXX:231.901
;MAXY:158.489
;MAXZ:8
;Generated with Cura_SteamEngine master
M140 S50
M105
M190 S50
M104 S200
M105
M109 S200
M82 ;absolute extrusion mode
; Ender 3 Custom Start G-code
G92 E0 ; Reset Extruder
G28 ; Home all axes
G1 Z2.0 F3000 ; Move Z Axis up little to prevent scratching of Heat Bed
G1 X0.1 Y20 Z0.3 F5000.0 ; Move to start position
G1 X0.1 Y200.0 Z0.3 F1500.0 E15 ; Draw the first line
G1 X0.4 Y200.0 Z0.3 F5000.0 ; Move to side a little
G1 X0.4 Y20 Z0.3 F1500.0 E30 ; Draw the second line
G92 E0 ; Reset Extruder
G1 Z2.0 F3000 ; Move Z Axis up little to prevent scratching of Heat Bed
G1 X5 Y20 Z0.3 F5000.0 ; Move over to prevent blob squish
G92 E0
G92 E0
G1 F2700 E-5
;LAYER_COUNT:40
;LAYER:0
M107
G0 F6000 X23.074 Y92.207 Z0.2
;TYPE:SKIRT
G1 F2700 E0
G1 F1200 X23.37 Y92.14 E0.01009
G1 X24.034 Y91.999 E0.03267
G1 X24.566 Y91.9 E0.05067
G1 X25.26 Y91.788 E0.07405
G1 X25.593 Y91.739 E0.08525
G1 X25.894 Y91.702 E0.09533
G1 X26.628 Y91.622 E0.11989
G1 X27.161 Y91.577 E0.13768
G1 X27.878 Y91.534 E0.16157
G1 X28.24 Y91.518 E0.17362
G1 X28.48 Y91.512 E0.18161
G1 X29.7 Y91.497 E0.22219
G1 X133.389 Y91.497 E3.6709
G1 X135.997 Y91.46 E3.75765
G1 X138.518 Y91.353 E3.84157
G1 X141.013 Y91.176 E3.92477
G1 X143.513 Y90.928 E4.00832
G1 X146.006 Y90.609 E4.09192
G1 X148.499 Y90.218 E4.17585
G1 X150.989 Y89.755 E4.26009
G1 X153.453 Y89.225 E4.34391
G1 X155.855 Y88.636 E4.42617
G1 X158.311 Y87.96 E4.5109
G1 X160.721 Y87.222 E4.59473
G1 X163.113 Y86.415 E4.67869
G1 X165.453 Y85.552 E4.76164
G1 X167.809 Y84.606 E4.84609
G1 X170.107 Y83.606 E4.92944
G1 X172.392 Y82.535 E5.01337
G1 X175.011 Y81.21 E5.111
G1 X176.005 Y80.705 E5.14808
G1 X176.286 Y80.567 E5.15849
G1 X176.799 Y80.325 E5.17736
G1 X177.758 Y79.893 E5.21234
G1 X178.066 Y79.76 E5.2235
G1 X178.626 Y79.529 E5.24365
G1 X178.83 Y79.447 E5.25096
G1 X179.652 Y79.127 E5.2803
G1 X180.236 Y78.913 E5.30098
G1 X180.671 Y78.761 E5.31631
G1 X181.551 Y78.466 E5.34718
G1 X181.807 Y78.384 E5.35612
G1 X182.24 Y78.251 E5.37119
G1 X182.58 Y78.153 E5.38296
G1 X183.487 Y77.898 E5.41429
G1 X183.744 Y77.829 E5.42314
G1 X184.16 Y77.723 E5.43742
G1 X184.579 Y77.623 E5.45175
G1 X185.623 Y77.386 E5.48736
G1 X185.95 Y77.318 E5.49846
G1 X186.446 Y77.223 E5.51526
G1 X187.434 Y77.048 E5.54863
G1 X187.681 Y77.007 E5.55696
G1 X188.115 Y76.942 E5.57156
G1 X188.494 Y76.889 E5.58429
G1 X189.344 Y76.78 E5.61279
G1 X189.619 Y76.749 E5.62199
G1 X190.18 Y76.692 E5.64075
G1 X190.499 Y76.664 E5.6514
G1 X191.434 Y76.591 E5.68259
G1 X191.765 Y76.571 E5.69362
G1 X192.528 Y76.536 E5.71902
G1 X193.426 Y76.511 E5.7489
G1 X193.88 Y76.505 E5.76401
G1 X194.559 Y76.509 E5.78659
G1 X195.376 Y76.526 E5.81377
G1 X195.966 Y76.549 E5.83341
G1 X196.343 Y76.569 E5.84596
G1 X197.396 Y76.641 E5.88107
G1 X197.696 Y76.666 E5.89108
G1 X198.234 Y76.718 E5.90906
G1 X198.484 Y76.745 E5.91742
G1 X199.444 Y76.86 E5.94958
G1 X199.733 Y76.899 E5.95928
G1 X200.285 Y76.98 E5.97784
G1 X200.515 Y77.016 E5.98558
G1 X201.346 Y77.156 E6.01361
G1 X201.613 Y77.204 E6.02263
G1 X202.134 Y77.306 E6.04029
G1 X202.457 Y77.373 E6.05126
G1 X203.317 Y77.56 E6.08053
G1 X203.688 Y77.648 E6.09321
G1 X204.422 Y77.836 E6.11841
G1 X205.329 Y78.082 E6.14967
G1 X205.64 Y78.171 E6.16043
G1 X206.168 Y78.331 E6.17878
G1 X206.385 Y78.399 E6.18634
G1 X207.223 Y78.672 E6.21566
G1 X207.75 Y78.854 E6.2342
G1 X208.095 Y78.978 E6.24639
G1 X209.1 Y79.358 E6.28213
G1 X209.359 Y79.46 E6.29139
G1 X209.777 Y79.632 E6.30642
G1 X210.091 Y79.766 E6.31778
G1 X210.949 Y80.14 E6.34891
G1 X211.202 Y80.254 E6.35814
G1 X211.588 Y80.435 E6.37232
G1 X211.94 Y80.605 E6.38532
G1 X212.752 Y81.008 E6.41547
G1 X213.04 Y81.156 E6.42624
G1 X213.561 Y81.434 E6.44588
G1 X213.749 Y81.537 E6.45301
G1 X214.488 Y81.95 E6.48117
G1 X214.769 Y82.112 E6.49196
G1 X215.309 Y82.435 E6.51288
G1 X215.499 Y82.551 E6.52029
G1 X216.253 Y83.023 E6.54987
G1 X216.501 Y83.183 E6.55969
G1 X216.847 Y83.413 E6.57351
G1 X217.18 Y83.641 E6.58693
G1 X217.949 Y84.177 E6.61811
G1 X218.213 Y84.367 E6.62893
G1 X218.835 Y84.83 E6.65472
G1 X219.463 Y85.314 E6.68109
G1 X219.669 Y85.477 E6.68983
G1 X220.093 Y85.821 E6.70799
G1 X220.339 Y86.027 E6.71866
G1 X221.061 Y86.643 E6.75022
G1 X221.579 Y87.103 E6.77326
G1 X221.935 Y87.431 E6.78936
G1 X222.526 Y87.987 E6.81635
G1 X222.714 Y88.168 E6.82503
G1 X223.041 Y88.492 E6.84034
G1 X223.287 Y88.742 E6.85201
G1 X223.963 Y89.444 E6.88442
G1 X224.186 Y89.683 E6.8953
G1 X224.676 Y90.226 E6.91962
G1 X225.29 Y90.929 E6.95067
G1 X225.491 Y91.165 E6.96098
G1 X225.849 Y91.599 E6.97969
G1 X226.524 Y92.45 E7.01582
G1 X226.719 Y92.704 E7.02647
G1 X227.06 Y93.162 E7.04546
G1 X227.191 Y93.342 E7.05286
G1 X227.734 Y94.103 E7.08396
G1 X227.88 Y94.312 E7.09244
G1 X228.144 Y94.703 E7.10813
G1 X228.337 Y94.997 E7.11982
G1 X228.842 Y95.782 E7.15087
G1 X229.034 Y96.091 E7.16297
G1 X229.412 Y96.726 E7.18755
G1 X229.868 Y97.517 E7.21792
G1 X230.039 Y97.826 E7.22966
G1 X230.318 Y98.348 E7.24935
G1 X230.707 Y99.106 E7.27769
G1 X231.098 Y99.959 E7.3089
G1 X231.414 Y100.842 E7.34009
G1 X231.654 Y101.748 E7.37126
G1 X231.816 Y102.672 E7.40246
G1 X231.899 Y103.606 E7.43365
G1 X231.901 Y104.544 E7.46485
G1 X231.824 Y105.479 E7.49605
G1 X231.668 Y106.403 E7.52722
G1 X231.534 Y106.958 E7.54621
G1 X231.355 Y107.624 E7.56915
G1 X230.711 Y110.168 E7.65643
G1 X230.15 Y112.675 E7.74187
G1 X229.681 Y115.103 E7.82412
G1 X229.274 Y117.576 E7.90748
G1 X228.937 Y120.061 E7.99089
G1 X228.665 Y122.609 E8.07612
G1 X228.471 Y125.085 E8.15872
G1 X228.343 Y127.617 E8.24304
G1 X228.29 Y130.099 E8.32561
G1 X228.306 Y132.646 E8.41033
G1 X228.402 Y135.357 E8.50055
G1 X228.422 Y135.748 E8.51358
G1 X228.429 Y136.686 E8.54477
G1 X228.356 Y137.621 E8.57597
G1 X228.204 Y138.547 E8.60718
G1 X227.974 Y139.456 E8.63837
G1 X227.666 Y140.342 E8.66956
G1 X227.285 Y141.199 E8.70076
G1 X226.832 Y142.02 E8.73194
G1 X226.31 Y142.799 E8.76313
G1 X225.935 Y143.284 E8.78352
G1 X225.437 Y143.89 E8.80961
G1 X225.231 Y144.132 E8.82018
G1 X224.502 Y144.966 E8.85702
G1 X224.091 Y145.414 E8.87725
G1 X223.885 Y145.631 E8.8872
G1 X223.269 Y146.272 E8.91677
G1 X223.071 Y146.473 E8.92615
G1 X222.716 Y146.823 E8.94273
G1 X222.416 Y147.111 E8.95656
G1 X221.809 Y147.682 E8.98428
G1 X221.625 Y147.851 E8.99259
G1 X221.269 Y148.17 E9.00849
G1 X220.897 Y148.494 E9.0249
G1 X220.247 Y149.046 E9.05326
G1 X220.049 Y149.21 E9.06181
G1 X219.712 Y149.482 E9.07622
G1 X219.343 Y149.773 E9.09185
G1 X218.677 Y150.285 E9.11979
G1 X218.458 Y150.449 E9.12889
G1 X218.026 Y150.763 E9.14665
G1 X217.693 Y150.998 E9.1602
G1 X216.976 Y151.494 E9.1892
G1 X216.721 Y151.665 E9.19941
G1 X216.019 Y152.12 E9.22724
G1 X215.297 Y152.568 E9.2555
G1 X215.031 Y152.728 E9.26582
G1 X214.483 Y153.047 E9.28691
G1 X214.283 Y153.16 E9.29455
G1 X213.502 Y153.593 E9.32425
G1 X213.267 Y153.72 E9.33314
G1 X212.869 Y153.927 E9.34806
G1 X212.475 Y154.126 E9.36274
G1 X211.673 Y154.519 E9.39245
G1 X211.414 Y154.642 E9.40198
G1 X211.008 Y154.827 E9.41682
G1 X210.616 Y155.001 E9.43109
G1 X209.839 Y155.336 E9.45923
G1 X209.55 Y155.456 E9.46964
G1 X209.002 Y155.674 E9.48925
G1 X208.774 Y155.762 E9.49738
G1 X207.928 Y156.077 E9.52741
G1 X207.672 Y156.168 E9.53644
G1 X207.174 Y156.339 E9.55396
G1 X206.768 Y156.472 E9.56817
G1 X205.942 Y156.733 E9.59698
G1 X205.647 Y156.822 E9.60723
G1 X205.118 Y156.973 E9.62552
G1 X204.883 Y157.037 E9.63362
G1 X204 Y157.268 E9.66398
G1 X203.739 Y157.333 E9.67293
G1 X203.272 Y157.442 E9.68888
G1 X202.9 Y157.525 E9.70155
G1 X202.039 Y157.707 E9.73082
G1 X201.769 Y157.761 E9.73998
G1 X201.321 Y157.843 E9.75513
G1 X200.87 Y157.92 E9.77035
G1 X200.04 Y158.052 E9.7983
G1 X199.758 Y158.094 E9.80778
G1 X199.264 Y158.158 E9.82435
G1 X198.811 Y158.213 E9.83953
G1 X197.977 Y158.303 E9.86743
G1 X197.355 Y158.357 E9.88819
G1 X196.998 Y158.384 E9.9001
G1 X195.974 Y158.444 E9.93422
G1 X195.712 Y158.456 E9.94294
G1 X195.205 Y158.473 E9.95981
G1 X194.778 Y158.482 E9.97402
G1 X193.891 Y158.489 E10.00352
G1 X193.61 Y158.487 E10.01287
G1 X193.211 Y158.48 E10.02614
G1 X192.785 Y158.467 E10.04032
G1 X191.909 Y158.431 E10.06948
G1 X191.641 Y158.416 E10.07841
G1 X191.075 Y158.378 E10.09727
G1 X190.718 Y158.35 E10.10918
G1 X189.852 Y158.271 E10.13811
G1 X189.593 Y158.244 E10.14677
G1 X189.129 Y158.19 E10.1623
G1 X188.675 Y158.13 E10.17754
G1 X187.835 Y158.01 E10.20576
G1 X187.591 Y157.973 E10.21397
G1 X187.035 Y157.88 E10.23272
G1 X186.688 Y157.817 E10.24445
G1 X185.823 Y157.65 E10.27375
G1 X185.566 Y157.597 E10.28247
G1 X185.094 Y157.493 E10.29855
G1 X184.66 Y157.392 E10.31337
G1 X183.832 Y157.189 E10.34173
G1 X183.557 Y157.117 E10.35118
G1 X183.136 Y157.002 E10.3657
G1 X182.721 Y156.884 E10.38005
G1 X181.915 Y156.644 E10.40802
G1 X181.648 Y156.56 E10.41733
G1 X181.078 Y156.374 E10.43727
G1 X180.805 Y156.28 E10.44687
G1 X179.935 Y155.973 E10.47756
G1 X179.629 Y155.86 E10.48841
G1 X179.065 Y155.642 E10.50852
G1 X178.848 Y155.556 E10.51628
G1 X178.077 Y155.239 E10.54401
G1 X177.785 Y155.114 E10.55457
G1 X177.172 Y154.841 E10.57689
G1 X176.965 Y154.746 E10.58447
G1 X176.206 Y154.389 E10.61236
G1 X175.947 Y154.263 E10.62194
G1 X175.51 Y154.043 E10.63822
G1 X173.054 Y152.783 E10.73003
G1 X170.782 Y151.695 E10.81381
G1 X168.479 Y150.672 E10.89763
G1 X166.099 Y149.691 E10.98325
G1 X163.809 Y148.828 E11.06464
G1 X161.403 Y147.994 E11.14934
G1 X159.016 Y147.242 E11.23257
G1 X156.558 Y146.544 E11.31756
G1 X154.161 Y145.935 E11.39982
G1 X151.664 Y145.374 E11.48494
G1 X149.238 Y144.906 E11.56711
G1 X146.727 Y144.491 E11.65176
G1 X144.257 Y144.154 E11.73468
G1 X141.739 Y143.883 E11.81891
G1 X139.223 Y143.684 E11.90285
G1 X136.731 Y143.558 E11.98584
G1 X133.386 Y143.497 E12.09712
G1 X29.569 Y143.496 E15.55009
G1 X28.635 Y143.485 E15.58115
G1 X28.347 Y143.478 E15.59073
G1 X27.795 Y143.457 E15.60911
G1 X27.478 Y143.44 E15.61967
G1 X27.028 Y143.407 E15.63467
G1 X26.365 Y143.347 E15.65681
G1 X25.821 Y143.284 E15.67503
G1 X25.161 Y143.191 E15.6972
G1 X24.777 Y143.131 E15.71012
G1 X24.461 Y143.075 E15.7208
G1 X23.768 Y142.941 E15.74427
G1 X23.269 Y142.832 E15.76126
G1 X22.674 Y142.688 E15.78162
G1 X22.416 Y142.623 E15.79047
G1 X22.233 Y142.574 E15.79677
G1 X21.911 Y142.482 E15.80791
G1 X21.249 Y142.283 E15.8309
G1 X20.756 Y142.122 E15.84815
G1 X20.158 Y141.911 E15.86924
G1 X19.795 Y141.777 E15.88211
G1 X19.52 Y141.668 E15.89195
G1 X18.869 Y141.401 E15.91536
G1 X18.348 Y141.172 E15.93428
G1 X17.636 Y140.836 E15.96047
G1 X17.175 Y140.605 E15.97762
G1 X16.619 Y140.31 E15.99855
G1 X16.211 Y140.083 E16.01408
G1 X16.027 Y139.976 E16.02116
G1 X15.506 Y139.666 E16.04133
G1 X15.241 Y139.504 E16.05166
G1 X14.913 Y139.292 E16.06465
G1 X14.387 Y138.941 E16.08568
G1 X14.059 Y138.714 E16.09895
G1 X13.857 Y138.568 E16.10724
G1 X13.307 Y138.16 E16.13001
G1 X12.896 Y137.839 E16.14736
G1 X12.33 Y137.376 E16.17168
G1 X11.921 Y137.025 E16.18961
G1 X11.414 Y136.567 E16.21233
G1 X11.1 Y136.273 E16.22664
G1 X10.861 Y136.039 E16.23776
G1 X10.374 Y135.548 E16.26076
G1 X10.035 Y135.19 E16.27716
G1 X9.598 Y134.708 E16.2988
G1 X9.364 Y134.442 E16.31058
G1 X9.119 Y134.151 E16.32324
G1 X8.751 Y133.701 E16.34257
G1 X8.501 Y133.383 E16.35603
G1 X8.335 Y133.162 E16.36522
G1 X7.91 Y132.584 E16.38908
G1 X7.597 Y132.136 E16.40726
G1 X7.226 Y131.575 E16.42963
G1 X7.038 Y131.282 E16.44121
G1 X6.848 Y130.97 E16.45336
G1 X6.489 Y130.359 E16.47693
G1 X6.23 Y129.893 E16.49466
G1 X5.881 Y129.227 E16.51967
G1 X5.65 Y128.761 E16.53697
G1 X5.376 Y128.172 E16.55857
G1 X5.232 Y127.849 E16.57033
G1 X5.09 Y127.511 E16.58253
G1 X4.86 Y126.943 E16.60291
G1 X4.68 Y126.467 E16.61984
G1 X4.436 Y125.774 E16.64427
G1 X4.287 Y125.321 E16.66013
G1 X4.221 Y125.105 E16.66765
G1 X4.055 Y124.54 E16.68723
G1 X3.944 Y124.135 E16.7012
G1 X3.87 Y123.84 E16.71131
G1 X3.698 Y123.112 E16.73619
G1 X3.586 Y122.581 E16.75424
G1 X3.451 Y121.85 E16.77897
G1 X3.37 Y121.344 E16.79601
G1 X3.288 Y120.745 E16.81612
G1 X3.235 Y120.303 E16.83093
G1 X3.204 Y119.986 E16.84152
G1 X3.145 Y119.276 E16.86522
G1 X3.115 Y118.776 E16.88188
G1 X3.092 Y118.161 E16.90235
G1 X3.083 Y117.745 E16.91619
G1 X3.083 Y117.44 E16.92633
G1 X3.092 Y116.819 E16.94699
G1 X3.104 Y116.434 E16.9598
G1 X3.121 Y116.106 E16.97072
G1 X3.168 Y115.407 E16.99402
G1 X3.212 Y114.913 E17.01052
G1 X3.283 Y114.283 E17.03161
G1 X3.323 Y113.968 E17.04217
G1 X3.386 Y113.549 E17.05626
G1 X3.491 Y112.915 E17.07763
G1 X3.586 Y112.414 E17.09459
G1 X3.737 Y111.707 E17.11864
G1 X3.864 Y111.175 E17.13683
G1 X4.049 Y110.48 E17.16075
G1 X4.174 Y110.043 E17.17587
G1 X4.268 Y109.739 E17.18645
G1 X4.461 Y109.148 E17.20713
G1 X4.574 Y108.82 E17.21867
G1 X4.671 Y108.555 E17.22805
G1 X4.933 Y107.868 E17.25251
G1 X5.134 Y107.377 E17.27016
G1 X5.387 Y106.799 E17.29114
G1 X5.57 Y106.401 E17.30571
G1 X5.679 Y106.176 E17.31403
G1 X5.996 Y105.541 E17.33763
G1 X6.242 Y105.076 E17.35513
G1 X6.571 Y104.489 E17.37751
G1 X6.849 Y104.021 E17.39562
G1 X7.248 Y103.385 E17.42059
G1 X7.44 Y103.09 E17.43229
G1 X7.642 Y102.794 E17.44421
G1 X8.01 Y102.271 E17.46548
G1 X8.313 Y101.86 E17.48247
G1 X8.755 Y101.29 E17.50646
G1 X8.998 Y100.989 E17.51932
G1 X9.212 Y100.735 E17.53037
G1 X9.67 Y100.206 E17.55364
G1 X10.042 Y99.798 E17.57201
G1 X10.563 Y99.254 E17.59706
G1 X10.967 Y98.853 E17.61599
G1 X11.531 Y98.322 E17.64176
G1 X11.912 Y97.979 E17.65881
G1 X12.451 Y97.517 E17.68242
G1 X12.869 Y97.177 E17.70034
G1 X13.408 Y96.759 E17.72303
G1 X13.68 Y96.554 E17.73435
G1 X13.937 Y96.37 E17.74487
G1 X14.5 Y95.978 E17.76768
G1 X14.919 Y95.699 E17.78443
G1 X15.506 Y95.329 E17.80751
G1 X15.899 Y95.092 E17.82277
G1 X16.148 Y94.949 E17.83232
G1 X16.684 Y94.65 E17.85273
G1 X16.988 Y94.486 E17.86422
G1 X17.276 Y94.339 E17.87498
G1 X17.945 Y94.01 E17.89977
G1 X18.429 Y93.786 E17.91751
G1 X18.995 Y93.541 E17.93802
G1 X19.354 Y93.392 E17.95095
G1 X19.684 Y93.262 E17.96275
G1 X20.34 Y93.017 E17.98604
G1 X20.858 Y92.838 E18.00427
G1 X21.563 Y92.614 E18.02887
G1 X22.069 Y92.467 E18.0464
G1 X22.656 Y92.311 E18.0666
G1 X23.074 Y92.207 E18.08093
G0 F6000 X23.168 Y92.596
G1 F1200 X23.453 Y92.531 E18.09065
G1 X24.117 Y92.39 E18.11322
G1 X24.63 Y92.294 E18.13058
G1 X25.324 Y92.182 E18.15396
G1 X25.647 Y92.135 E18.16482
G1 X25.937 Y92.099 E18.17454
G1 X26.671 Y92.019 E18.1991
G1 X27.185 Y91.976 E18.21625
G1 X27.902 Y91.933 E18.24014
G1 X28.253 Y91.917 E18.25183
G1 X28.485 Y91.912 E18.25955
G1 X29.7 Y91.897 E18.29996
G1 X133.395 Y91.897 E21.74887
G1 X136.02 Y91.86 E21.83619
G1 X138.528 Y91.753 E21.91968
G1 X141.048 Y91.575 E22.00371
G1 X143.563 Y91.326 E22.08776
G1 X146.052 Y91.007 E22.17123
G1 X148.604 Y90.606 E22.25715
G1 X151.035 Y90.154 E22.33939
G1 X153.527 Y89.618 E22.42417
G1 X155.984 Y89.016 E22.5083
G1 X158.429 Y88.343 E22.59265
G1 X160.829 Y87.608 E22.67613
G1 X163.243 Y86.794 E22.76087
G1 X165.593 Y85.927 E22.84418
G1 X167.981 Y84.968 E22.92977
G1 X170.258 Y83.977 E23.01236
G1 X172.577 Y82.89 E23.09755
G1 X175.09 Y81.62 E23.1912
G1 X175.32 Y81.5 E23.19982
G1 X176.186 Y81.061 E23.23212
G1 X176.457 Y80.929 E23.24214
G1 X176.97 Y80.687 E23.26101
G1 X177.922 Y80.258 E23.29574
G1 X178.219 Y80.13 E23.3065
G1 X178.779 Y79.899 E23.32664
G1 X178.976 Y79.82 E23.3337
G1 X179.798 Y79.5 E23.36304
G1 X180.035 Y79.411 E23.37146
G1 X180.5 Y79.244 E23.38789
G1 X180.798 Y79.141 E23.39838
G1 X181.678 Y78.846 E23.42925
G1 X181.925 Y78.766 E23.43789
G1 X182.353 Y78.635 E23.45277
G1 X182.688 Y78.538 E23.46437
G1 X183.595 Y78.283 E23.49571
G1 X183.843 Y78.216 E23.50425
G1 X184.254 Y78.112 E23.51835
G1 X184.668 Y78.013 E23.53251
G1 X185.705 Y77.778 E23.56788
G1 X186.228 Y77.671 E23.58563
G1 X186.638 Y77.595 E23.5995
G1 X187.504 Y77.442 E23.62875
G1 X187.742 Y77.402 E23.63678
G1 X188.17 Y77.338 E23.65117
G1 X188.545 Y77.286 E23.66376
G1 X189.395 Y77.177 E23.69227
G1 X189.66 Y77.146 E23.70114
G1 X190.216 Y77.09 E23.71973
G1 X190.53 Y77.063 E23.73021
G1 X191.465 Y76.99 E23.7614
G1 X191.784 Y76.97 E23.77203
G1 X192.328 Y76.944 E23.79015
G1 X192.539 Y76.936 E23.79717
G1 X193.437 Y76.911 E23.82705
G1 X193.884 Y76.905 E23.84192
G1 X194.551 Y76.909 E23.8641
G1 X195.368 Y76.926 E23.89128
