;FLAVOR:Marlin
;TIME:24566
;Filament used: 26.3064m
;Layer height: 0.28
;MINX:16.509
;MINY:16.528
;MINZ:0.28
;MAXX:218.491
;MAXY:218.472
;MAXZ:3.92
;Generated with Cura_SteamEngine master
M140 S50
M105
M190 S50
M104 S200
M105
M109 S200
M82 ;absolute extrusion mode
; Ender 3 Custom Start G-code
G92 E0 ; Reset Extruder
G28 ; Home all axes
G1 Z2.0 F3000 ; Move Z Axis up little to prevent scratching of Heat Bed
G1 X0.1 Y20 Z0.3 F5000.0 ; Move to start position
G1 X0.1 Y200.0 Z0.3 F1500.0 E15 ; Draw the first line
G1 X0.4 Y200.0 Z0.3 F5000.0 ; Move to side a little
G1 X0.4 Y20 Z0.3 F1500.0 E30 ; Draw the second line
G92 E0 ; Reset Extruder
G1 Z2.0 F3000 ; Move Z Axis up little to prevent scratching of Heat Bed
G1 X5 Y20 Z0.3 F5000.0 ; Move over to prevent blob squish
G92 E0
G92 E0
G1 F2700 E-5
;LAYER_COUNT:14
;LAYER:0
M107
G0 F6000 X46.358 Y45.83 Z0.28
;TYPE:SKIRT
G1 F2700 E0
G1 F1200 X47.038 Y45.152 E0.04471
G1 X47.236 Y44.96 E0.05756
G1 X47.573 Y44.641 E0.07916
G1 X50.062 Y42.333 E0.23722
G1 X50.689 Y41.767 E0.27655
G1 X50.897 Y41.584 E0.28945
G1 X51.314 Y41.227 E0.31501
G1 X53.924 Y39.039 E0.4736
G1 X54.533 Y38.542 E0.5102
G1 X54.748 Y38.371 E0.523
G1 X55.212 Y38.012 E0.55031
G1 X57.866 Y36.003 E0.70531
G1 X58.599 Y35.464 E0.74768
G1 X58.83 Y35.299 E0.76089
G1 X59.201 Y35.041 E0.78194
G1 X62.03 Y33.114 E0.94132
G1 X62.761 Y32.63 E0.98215
G1 X62.993 Y32.481 E0.99498
G1 X63.331 Y32.27 E1.01354
G1 X66.313 Y30.449 E1.17624
G1 X67.042 Y30.018 E1.21567
G1 X67.271 Y29.886 E1.22798
G1 X67.716 Y29.638 E1.2517
G1 X70.604 Y28.065 E1.40483
G1 X71.464 Y27.612 E1.45009
G1 X71.712 Y27.485 E1.46307
G1 X72.136 Y27.277 E1.48506
G1 X75.203 Y25.8 E1.64357
G1 X75.993 Y25.433 E1.68413
G1 X76.246 Y25.319 E1.69705
G1 X76.732 Y25.109 E1.7217
G1 X79.852 Y23.794 E1.87936
G1 X80.649 Y23.472 E1.91938
G1 X80.892 Y23.377 E1.93153
G1 X81.379 Y23.195 E1.95574
G1 X84.554 Y22.041 E2.11305
G1 X85.366 Y21.758 E2.15309
G1 X85.646 Y21.664 E2.16684
G1 X86.128 Y21.511 E2.19039
G1 X89.187 Y20.567 E2.33946
G1 X90.181 Y20.275 E2.3877
G1 X90.444 Y20.201 E2.40042
G1 X90.991 Y20.056 E2.42677
G1 X94.176 Y19.246 E2.5798
G1 X95.071 Y19.031 E2.62266
G1 X95.326 Y18.973 E2.63483
G1 X95.857 Y18.86 E2.66011
G1 X99.117 Y18.202 E2.81497
G1 X100.029 Y18.031 E2.85818
G1 X100.297 Y17.985 E2.87084
G1 X100.774 Y17.908 E2.89334
G1 X104.138 Y17.402 E3.05174
G1 X104.978 Y17.288 E3.09122
G1 X105.231 Y17.257 E3.10309
G1 X105.776 Y17.196 E3.12862
G1 X109.156 Y16.86 E3.28678
G1 X109.983 Y16.789 E3.32543
G1 X110.261 Y16.769 E3.33841
G1 X110.789 Y16.738 E3.36304
G1 X114.136 Y16.571 E3.51909
G1 X115.039 Y16.538 E3.56116
G1 X115.335 Y16.532 E3.57495
G1 X115.753 Y16.528 E3.59441
G1 X119.037 Y16.528 E3.74733
G1 X120.053 Y16.541 E3.79464
G1 X120.326 Y16.548 E3.80736
G1 X120.862 Y16.57 E3.83234
G1 X124.205 Y16.738 E3.9882
G1 X125.116 Y16.797 E4.03071
G1 X125.368 Y16.816 E4.04247
G1 X125.863 Y16.861 E4.06562
G1 X129.238 Y17.199 E4.22356
G1 X130.09 Y17.297 E4.26349
G1 X130.352 Y17.33 E4.27579
G1 X130.925 Y17.411 E4.30274
G1 X134.205 Y17.907 E4.4572
G1 X135.072 Y18.05 E4.49812
G1 X135.339 Y18.097 E4.51074
G1 X135.875 Y18.2 E4.53616
G1 X139.169 Y18.866 E4.69264
G1 X139.998 Y19.046 E4.73215
G1 X140.251 Y19.104 E4.74423
G1 X140.815 Y19.242 E4.77127
G1 X144.041 Y20.065 E4.9263
G1 X144.884 Y20.292 E4.96695
G1 X145.17 Y20.373 E4.98079
G1 X145.658 Y20.52 E5.00452
G1 X148.877 Y21.514 E5.16139
G1 X149.707 Y21.783 E5.20202
G1 X149.951 Y21.865 E5.21401
G1 X150.457 Y22.043 E5.23898
G1 X153.574 Y23.179 E5.39346
G1 X154.475 Y23.521 E5.43834
G1 X154.697 Y23.608 E5.44944
G1 X155.108 Y23.776 E5.47012
G1 X158.299 Y25.123 E5.6314
G1 X159.064 Y25.458 E5.67029
G1 X159.321 Y25.574 E5.68342
G1 X159.778 Y25.789 E5.70693
G1 X162.819 Y27.255 E5.86413
G1 X163.64 Y27.665 E5.90686
G1 X163.887 Y27.792 E5.91979
G1 X164.257 Y27.99 E5.93933
G1 X167.305 Y29.651 E6.10097
G1 X168.021 Y30.054 E6.13923
G1 X168.232 Y30.175 E6.15055
G1 X168.568 Y30.374 E6.16874
G1 X171.594 Y32.225 E6.33391
G1 X172.322 Y32.683 E6.37396
G1 X172.559 Y32.837 E6.38712
G1 X172.969 Y33.111 E6.41008
G1 X175.814 Y35.052 E6.57045
G1 X176.484 Y35.524 E6.60861
G1 X176.687 Y35.671 E6.62028
G1 X177.131 Y36 E6.64602
G1 X179.822 Y38.039 E6.80323
G1 X180.496 Y38.564 E6.84301
G1 X180.717 Y38.741 E6.85619
G1 X181.081 Y39.04 E6.87813
G1 X183.721 Y41.257 E7.03865
G1 X184.335 Y41.787 E7.07642
G1 X184.561 Y41.988 E7.09051
G1 X184.97 Y42.361 E7.11628
G1 X187.248 Y44.474 E7.26096
G1 X188.057 Y45.246 E7.31303
G1 X188.249 Y45.434 E7.32554
G1 X188.656 Y45.843 E7.35241
G1 X190.966 Y48.212 E7.50648
G1 X191.557 Y48.835 E7.54647
G1 X191.722 Y49.013 E7.55777
G1 X192.073 Y49.401 E7.58213
G1 X194.218 Y51.833 E7.73313
G1 X194.883 Y52.609 E7.78072
G1 X195.049 Y52.807 E7.79275
G1 X195.417 Y53.258 E7.81985
G1 X197.505 Y55.878 E7.97586
G1 X198.02 Y56.544 E8.01506
G1 X198.174 Y56.748 E8.02696
G1 X198.528 Y57.231 E8.05484
G1 X200.451 Y59.906 E8.20825
G1 X200.979 Y60.663 E8.25122
G1 X201.134 Y60.891 E8.26406
G1 X201.386 Y61.274 E8.28541
G1 X203.246 Y64.156 E8.44513
G1 X203.702 Y64.884 E8.48513
G1 X203.845 Y65.119 E8.49794
G1 X204.039 Y65.448 E8.51572
G1 X205.821 Y68.533 E8.68162
G1 X206.195 Y69.203 E8.71735
G1 X206.328 Y69.45 E8.73041
G1 X206.597 Y69.962 E8.75734
G1 X208.11 Y72.916 E8.91188
G1 X208.517 Y73.738 E8.95459
G1 X208.636 Y73.987 E8.96744
G1 X208.827 Y74.399 E8.98859
G1 X210.23 Y77.509 E9.14746
G1 X210.588 Y78.335 E9.18938
G1 X210.691 Y78.58 E9.20175
G1 X210.865 Y79.012 E9.22344
G1 X212.095 Y82.15 E9.38038
G1 X212.429 Y83.036 E9.42447
G1 X212.531 Y83.319 E9.43848
G1 X212.653 Y83.673 E9.45591
G1 X213.749 Y86.936 E9.6162
G1 X214.024 Y87.794 E9.65815
G1 X214.111 Y88.079 E9.67203
G1 X214.227 Y88.479 E9.69142
G1 X215.148 Y91.756 E9.84992
G1 X215.386 Y92.65 E9.893
G1 X215.45 Y92.904 E9.9052
G1 X215.559 Y93.357 E9.92689
G1 X216.301 Y96.609 E10.08221
G1 X216.498 Y97.528 E10.12597
G1 X216.555 Y97.816 E10.13965
G1 X216.645 Y98.301 E10.16261
G1 X217.223 Y101.585 E10.31788
G1 X217.372 Y102.502 E10.36114
G1 X217.416 Y102.798 E10.37508
G1 X217.478 Y103.261 E10.39683
G1 X217.895 Y106.596 E10.55333
G1 X217.994 Y107.486 E10.59503
G1 X218.021 Y107.769 E10.60826
G1 X218.065 Y108.293 E10.63275
G1 X218.314 Y111.636 E10.78884
G1 X218.367 Y112.497 E10.82901
G1 X218.381 Y112.789 E10.84262
G1 X218.399 Y113.3 E10.86643
G1 X218.48 Y116.545 E11.01758
G1 X218.491 Y117.555 E11.06461
G1 X218.491 Y117.836 E11.0777
G1 X218.484 Y118.277 E11.09824
G1 X218.398 Y121.71 E11.25814
G1 X218.363 Y122.601 E11.29966
G1 X218.347 Y122.892 E11.31323
G1 X218.318 Y123.322 E11.3333
G1 X218.06 Y126.767 E11.49416
G1 X217.986 Y127.592 E11.53273
G1 X217.96 Y127.852 E11.5449
G1 X217.901 Y128.365 E11.56894
G1 X217.499 Y131.571 E11.7194
G1 X217.357 Y132.589 E11.76726
G1 X217.315 Y132.869 E11.78044
G1 X217.227 Y133.393 E11.80518
G1 X216.644 Y136.697 E11.96141
G1 X216.481 Y137.552 E12.00194
G1 X216.422 Y137.84 E12.01563
G1 X216.322 Y138.297 E12.03741
G1 X215.556 Y141.649 E12.19752
G1 X215.351 Y142.488 E12.23773
G1 X215.204 Y143.045 E12.26456
G1 X214.288 Y146.305 E12.42224
G1 X213.993 Y147.304 E12.47074
G1 X213.908 Y147.577 E12.48405
G1 X213.744 Y148.081 E12.50873
G1 X212.665 Y151.289 E12.66633
G1 X212.383 Y152.09 E12.70588
G1 X212.299 Y152.32 E12.71728
G1 X212.123 Y152.784 E12.74039
G1 X210.931 Y155.819 E12.89222
G1 X210.538 Y156.782 E12.94065
G1 X210.431 Y157.034 E12.9534
G1 X210.252 Y157.442 E12.97414
G1 X208.838 Y160.574 E13.13416
G1 X208.473 Y161.353 E13.17421
G1 X208.351 Y161.605 E13.18725
G1 X208.113 Y162.08 E13.21199
G1 X206.599 Y165.031 E13.36643
G1 X206.16 Y165.86 E13.41011
G1 X206.021 Y166.115 E13.42363
G1 X205.815 Y166.479 E13.44311
G1 X204.16 Y169.345 E13.59721
G1 X203.651 Y170.199 E13.64351
G1 X203.495 Y170.454 E13.65743
G1 X203.259 Y170.826 E13.67794
G1 X201.387 Y173.724 E13.83859
G1 X200.929 Y174.411 E13.87704
G1 X200.781 Y174.627 E13.88923
G1 X200.445 Y175.104 E13.9164
G1 X198.531 Y177.763 E14.06895
G1 X197.959 Y178.536 E14.11373
G1 X197.798 Y178.749 E14.12616
G1 X197.503 Y179.127 E14.14849
G1 X195.389 Y181.776 E14.3063
G1 X194.832 Y182.454 E14.34716
G1 X194.67 Y182.646 E14.35886
G1 X194.327 Y183.044 E14.38332
G1 X192.164 Y185.495 E14.53554
G1 X191.523 Y186.201 E14.57994
G1 X191.342 Y186.396 E14.59233
G1 X190.945 Y186.811 E14.61907
G1 X188.642 Y189.17 E14.77258
G1 X187.962 Y189.848 E14.8173
G1 X187.764 Y190.04 E14.83014
G1 X187.427 Y190.359 E14.85175
G1 X184.938 Y192.667 E15.0098
G1 X184.311 Y193.233 E15.04914
G1 X184.103 Y193.416 E15.06204
G1 X183.686 Y193.773 E15.0876
G1 X181.076 Y195.961 E15.24618
G1 X180.467 Y196.458 E15.28279
G1 X180.252 Y196.629 E15.29558
G1 X179.788 Y196.988 E15.3229
G1 X177.134 Y198.997 E15.47789
G1 X176.401 Y199.536 E15.52026
G1 X176.17 Y199.701 E15.53348
G1 X175.799 Y199.959 E15.55452
G1 X172.97 Y201.886 E15.7139
G1 X172.239 Y202.37 E15.75473
G1 X172.007 Y202.519 E15.76757
G1 X171.669 Y202.73 E15.78612
G1 X168.687 Y204.551 E15.94882
G1 X167.958 Y204.982 E15.98825
G1 X167.729 Y205.114 E16.00056
G1 X167.284 Y205.362 E16.02428
G1 X164.396 Y206.935 E16.17741
G1 X163.536 Y207.388 E16.22267
G1 X163.288 Y207.515 E16.23565
G1 X162.864 Y207.723 E16.25764
G1 X159.797 Y209.2 E16.41615
G1 X159.007 Y209.567 E16.45671
G1 X158.754 Y209.681 E16.46963
G1 X158.268 Y209.891 E16.49428
G1 X155.148 Y211.206 E16.65194
G1 X154.351 Y211.528 E16.69197
G1 X154.108 Y211.623 E16.70412
G1 X153.621 Y211.805 E16.72832
G1 X150.446 Y212.959 E16.88563
G1 X149.634 Y213.242 E16.92567
G1 X149.354 Y213.336 E16.93942
G1 X148.872 Y213.489 E16.96297
G1 X145.813 Y214.433 E17.11204
G1 X144.819 Y214.725 E17.16028
G1 X144.556 Y214.799 E17.173
G1 X144.009 Y214.944 E17.19935
G1 X140.824 Y215.754 E17.35238
G1 X139.929 Y215.969 E17.39524
G1 X139.674 Y216.027 E17.40742
G1 X139.143 Y216.14 E17.4327
G1 X135.883 Y216.798 E17.58756
G1 X134.971 Y216.969 E17.63076
G1 X134.703 Y217.015 E17.64342
G1 X134.226 Y217.092 E17.66592
G1 X130.862 Y217.598 E17.82433
G1 X130.022 Y217.712 E17.8638
G1 X129.769 Y217.743 E17.87567
G1 X129.224 Y217.804 E17.9012
G1 X125.844 Y218.14 E18.05937
G1 X125.017 Y218.211 E18.09802
G1 X124.739 Y218.231 E18.111
G1 X124.211 Y218.262 E18.13562
G1 X120.864 Y218.429 E18.29167
G1 X119.961 Y218.462 E18.33374
G1 X119.665 Y218.468 E18.34753
G1 X119.247 Y218.472 E18.36699
G1 X115.81 Y218.471 E18.52703
G1 X114.947 Y218.459 E18.56722
G1 X114.674 Y218.452 E18.57994
G1 X114.138 Y218.43 E18.60492
G1 X110.795 Y218.262 E18.76078
G1 X109.884 Y218.203 E18.80329
G1 X109.632 Y218.184 E18.81506
G1 X109.137 Y218.139 E18.8382
G1 X105.762 Y217.801 E18.99614
G1 X104.91 Y217.703 E19.03608
G1 X104.648 Y217.67 E19.04837
G1 X104.075 Y217.589 E19.07532
G1 X100.795 Y217.093 E19.22978
G1 X99.928 Y216.95 E19.2707
G1 X99.661 Y216.903 E19.28333
G1 X99.125 Y216.8 E19.30874
G1 X95.831 Y216.134 E19.46523
G1 X95.002 Y215.954 E19.50473
G1 X94.749 Y215.896 E19.51681
G1 X94.185 Y215.758 E19.54385
G1 X90.959 Y214.935 E19.69888
G1 X90.116 Y214.708 E19.73953
G1 X89.83 Y214.627 E19.75337
G1 X89.342 Y214.48 E19.7771
G1 X86.123 Y213.486 E19.93398
G1 X85.293 Y213.217 E19.9746
G1 X85.049 Y213.135 E19.98659
G1 X84.543 Y212.957 E20.01157
G1 X81.426 Y211.821 E20.16605
G1 X80.525 Y211.479 E20.21092
G1 X80.303 Y211.392 E20.22202
G1 X79.892 Y211.224 E20.2427
G1 X76.701 Y209.877 E20.40398
G1 X75.936 Y209.542 E20.44287
G1 X75.679 Y209.426 E20.456
G1 X75.222 Y209.211 E20.47952
G1 X72.181 Y207.745 E20.63671
G1 X71.36 Y207.335 E20.67944
G1 X71.113 Y207.208 E20.69238
G1 X70.743 Y207.01 E20.71192
G1 X67.695 Y205.349 E20.87355
G1 X66.979 Y204.946 E20.91181
G1 X66.768 Y204.825 E20.92313
G1 X66.432 Y204.626 E20.94132
G1 X63.406 Y202.775 E21.10649
G1 X62.678 Y202.317 E21.14654
G1 X62.441 Y202.163 E21.1597
G1 X62.031 Y201.889 E21.18266
G1 X59.186 Y199.948 E21.34303
G1 X58.516 Y199.476 E21.3812
G1 X58.313 Y199.329 E21.39287
G1 X57.869 Y199 E21.4186
G1 X55.177 Y196.96 E21.57588
G1 X54.502 Y196.434 E21.61572
G1 X54.286 Y196.261 E21.62861
G1 X53.919 Y195.96 E21.65071
G1 X51.279 Y193.743 E21.81124
G1 X50.665 Y193.213 E21.84901
G1 X50.439 Y193.012 E21.86309
G1 X50.03 Y192.639 E21.88886
G1 X47.752 Y190.526 E22.03354
G1 X46.943 Y189.754 E22.08561
G1 X46.751 Y189.566 E22.09813
G1 X46.342 Y189.156 E22.12509
G1 X44.14 Y186.899 E22.27192
G1 X43.443 Y186.165 E22.31905
G1 X43.28 Y185.989 E22.33022
G1 X42.926 Y185.597 E22.35482
G1 X40.664 Y183.031 E22.5141
G1 X40.116 Y182.391 E22.55333
G1 X39.951 Y182.193 E22.56533
G1 X39.584 Y181.742 E22.59241
G1 X37.493 Y179.119 E22.74861
G1 X36.979 Y178.454 E22.78774
G1 X36.826 Y178.252 E22.79954
G1 X36.472 Y177.769 E22.82743
G1 X34.551 Y175.096 E22.9807
G1 X34.022 Y174.338 E23.02374
G1 X33.86 Y174.1 E23.03715
G1 X33.614 Y173.726 E23.05799
G1 X31.754 Y170.844 E23.21771
G1 X31.298 Y170.116 E23.25771
G1 X31.155 Y169.882 E23.27048
G1 X30.927 Y169.496 E23.29136
G1 X29.179 Y166.467 E23.4542
G1 X28.805 Y165.797 E23.48993
G1 X28.667 Y165.541 E23.50347
G1 X28.404 Y165.038 E23.5299
G1 X26.89 Y162.084 E23.68447
G1 X26.483 Y161.262 E23.72718
G1 X26.364 Y161.013 E23.74003
G1 X26.172 Y160.598 E23.76132
G1 X24.774 Y157.498 E23.91967
G1 X24.416 Y156.674 E23.9615
G1 X24.309 Y156.42 E23.97433
G1 X24.135 Y155.988 E23.99602
G1 X22.905 Y152.85 E24.15296
G1 X22.571 Y151.964 E24.19705
G1 X22.469 Y151.681 E24.21106
G1 X22.347 Y151.327 E24.2285
G1 X21.25 Y148.061 E24.38892
G1 X20.975 Y147.202 E24.43092
G1 X20.891 Y146.929 E24.44422
G1 X20.773 Y146.521 E24.464
G1 X19.852 Y143.244 E24.6225
G1 X19.614 Y142.35 E24.66558
G1 X19.546 Y142.081 E24.6785
G1 X19.441 Y141.639 E24.69965
G1 X18.687 Y138.331 E24.85764
G1 X18.503 Y137.473 E24.8985
G1 X18.445 Y137.184 E24.91223
G1 X18.355 Y136.699 E24.93519
G1 X17.777 Y133.415 E25.09046
G1 X17.628 Y132.498 E25.13372
G1 X17.584 Y132.202 E25.14766
G1 X17.522 Y131.738 E25.16945
G1 X17.123 Y128.555 E25.31883
G1 X17.007 Y127.515 E25.36755
G1 X16.979 Y127.231 E25.38084
G1 X16.935 Y126.707 E25.40533
G1 X16.686 Y123.363 E25.56147
G1 X16.633 Y122.501 E25.60168
G1 X16.619 Y122.211 E25.6152
G1 X16.601 Y121.7 E25.63901
G1 X16.52 Y118.455 E25.79016
G1 X16.509 Y117.445 E25.83719
G1 X16.509 Y117.164 E25.85028
G1 X16.516 Y116.723 E25.87081
G1 X16.602 Y113.29 E26.03072
G1 X16.637 Y112.399 E26.07224
G1 X16.653 Y112.108 E26.08581
G1 X16.682 Y111.678 E26.10588
G1 X16.94 Y108.228 E26.26697
G1 X17.016 Y107.385 E26.30639
G1 X17.099 Y106.635 E26.34152
G1 X17.501 Y103.429 E26.49198
G1 X17.643 Y102.411 E26.53984
G1 X17.685 Y102.131 E26.55302
G1 X17.773 Y101.607 E26.57776
G1 X18.356 Y98.303 E26.73399
G1 X18.519 Y97.448 E26.77452
G1 X18.578 Y97.16 E26.78821
G1 X18.678 Y96.703 E26.80999
G1 X19.444 Y93.351 E26.9701
G1 X19.649 Y92.512 E27.01031
G1 X19.796 Y91.955 E27.03714
G1 X20.718 Y88.674 E27.19583
G1 X21.008 Y87.694 E27.24342
G1 X21.092 Y87.423 E27.25663
G1 X21.256 Y86.919 E27.28131
G1 X22.335 Y83.711 E27.43891
G1 X22.617 Y82.91 E27.47845
G1 X22.701 Y82.68 E27.48986
G1 X22.877 Y82.216 E27.51296
G1 X24.069 Y79.181 E27.6648
G1 X24.462 Y78.218 E27.71323
G1 X24.569 Y77.966 E27.72598
G1 X24.748 Y77.558 E27.74672
G1 X26.162 Y74.426 E27.90673
G1 X26.527 Y73.647 E27.94679
G1 X26.649 Y73.395 E27.95983
G1 X26.887 Y72.92 E27.98457
G1 X28.401 Y69.969 E28.13901
G1 X28.84 Y69.14 E28.18269
G1 X28.979 Y68.885 E28.19621
G1 X29.185 Y68.521 E28.21569
G1 X30.84 Y65.655 E28.36979
G1 X31.349 Y64.801 E28.41609
G1 X31.505 Y64.546 E28.43001
G1 X31.741 Y64.174 E28.45052
G1 X33.613 Y61.276 E28.61117
G1 X34.071 Y60.589 E28.64961
G1 X34.219 Y60.373 E28.66181
G1 X34.555 Y59.896 E28.68898
G1 X36.469 Y57.237 E28.84153
G1 X37.041 Y56.464 E28.88631
G1 X37.202 Y56.251 E28.89874
G1 X37.497 Y55.873 E28.92107
G1 X39.611 Y53.224 E29.07888
G1 X40.168 Y52.546 E29.11974
G1 X40.33 Y52.354 E29.13143
G1 X40.673 Y51.956 E29.1559
G1 X42.836 Y49.505 E29.30812
G1 X43.477 Y48.799 E29.35252
G1 X43.658 Y48.604 E29.36491
G1 X44.055 Y48.189 E29.39165
G1 X46.358 Y45.83 E29.54516
G0 F6000 X46.539 Y46.216
G1 F1200 X47.321 Y45.436 E29.59659
G1 X47.512 Y45.25 E29.60901
G1 X47.845 Y44.934 E29.63038
G1 X50.222 Y42.728 E29.78139
G1 X50.957 Y42.064 E29.82751
G1 X51.158 Y41.887 E29.83998
G1 X51.572 Y41.533 E29.86534
G1 X54.177 Y39.349 E30.02363
G1 X54.786 Y38.852 E30.06024
G1 X54.993 Y38.687 E30.07256
G1 X55.454 Y38.331 E30.09968
