;FLAVOR:Marlin
;TIME:17790
;Filament used: 22.6931m
;Layer height: 0.28
;MINX:2.33
;MINY:79.53
;MINZ:0.28
;MAXX:232.67
;MAXY:155.47
;MAXZ:22.4
;Generated with Cura_SteamEngine master
M140 S50
M105
M190 S50
M104 S200
M105
M109 S200
M82 ;absolute extrusion mode
; Ender 3 Custom Start G-code
G92 E0 ; Reset Extruder
G28 ; Home all axes
G1 Z2.0 F3000 ; Move Z Axis up little to prevent scratching of Heat Bed
G1 X0.1 Y20 Z0.3 F5000.0 ; Move to start position
G1 X0.1 Y200.0 Z0.3 F1500.0 E15 ; Draw the first line
G1 X0.4 Y200.0 Z0.3 F5000.0 ; Move to side a little
G1 X0.4 Y20 Z0.3 F1500.0 E30 ; Draw the second line
G92 E0 ; Reset Extruder
G1 Z2.0 F3000 ; Move Z Axis up little to prevent scratching of Heat Bed
G1 X5 Y20 Z0.3 F5000.0 ; Move over to prevent blob squish
G92 E0
G92 E0
G1 F2700 E-5
;LAYER_COUNT:80
;LAYER:0
M107
G0 F6000 X12.16 Y79.602 Z0.28
;TYPE:SKIRT
G1 F2700 E0
G1 F1200 X13.031 Y79.543 E0.04065
G1 X13.352 Y79.534 E0.0556
G1 X13.66 Y79.53 E0.06995
G1 X220.963 Y79.53 E9.72284
G1 X221.819 Y79.541 E9.7627
G1 X222.755 Y79.595 E9.80636
G1 X223.683 Y79.727 E9.85001
G1 X224.597 Y79.939 E9.8937
G1 X225.489 Y80.228 E9.93736
G1 X226.354 Y80.591 E9.98104
G1 X227.184 Y81.027 E10.0247
G1 X227.975 Y81.532 E10.06839
G1 X228.719 Y82.103 E10.11206
G1 X229.412 Y82.735 E10.15574
G1 X230.049 Y83.423 E10.1994
G1 X230.624 Y84.164 E10.24307
G1 X231.135 Y84.95 E10.28672
G1 X231.577 Y85.778 E10.33043
G1 X231.946 Y86.64 E10.37409
G1 X232.241 Y87.53 E10.41775
G1 X232.459 Y88.442 E10.46141
G1 X232.599 Y89.37 E10.50511
G1 X232.657 Y90.231 E10.5453
G1 X232.666 Y90.551 E10.5602
G1 X232.67 Y90.86 E10.57459
G1 X232.669 Y143.87 E13.04296
G1 X232.66 Y144.597 E13.07681
G1 X232.609 Y145.534 E13.12051
G1 X232.477 Y146.462 E13.16416
G1 X232.268 Y147.376 E13.20781
G1 X231.981 Y148.269 E13.25149
G1 X231.619 Y149.135 E13.2952
G1 X231.185 Y149.966 E13.33885
G1 X230.681 Y150.757 E13.38252
G1 X230.112 Y151.502 E13.42618
G1 X229.481 Y152.197 E13.46989
G1 X228.794 Y152.835 E13.51354
G1 X228.055 Y153.412 E13.5572
G1 X227.269 Y153.924 E13.60088
G1 X226.443 Y154.367 E13.64452
G1 X225.581 Y154.739 E13.68824
G1 X224.692 Y155.035 E13.73187
G1 X223.78 Y155.255 E13.77555
G1 X222.853 Y155.396 E13.81922
G1 X221.969 Y155.457 E13.86048
G1 X221.648 Y155.466 E13.87543
G1 X221.34 Y155.47 E13.88977
G1 X13.895 Y155.469 E23.54928
G1 X13.197 Y155.46 E23.58179
G1 X12.261 Y155.408 E23.62544
G1 X11.332 Y155.276 E23.66913
G1 X10.418 Y155.066 E23.7128
G1 X9.525 Y154.779 E23.75647
G1 X8.66 Y154.416 E23.80016
G1 X7.829 Y153.982 E23.84381
G1 X7.038 Y153.478 E23.88748
G1 X6.293 Y152.908 E23.93116
G1 X5.599 Y152.277 E23.97484
G1 X4.962 Y151.59 E24.01846
G1 X4.385 Y150.85 E24.06216
G1 X3.873 Y150.064 E24.10584
G1 X3.43 Y149.237 E24.14952
G1 X3.059 Y148.376 E24.19318
G1 X2.763 Y147.486 E24.23685
G1 X2.544 Y146.574 E24.28053
G1 X2.403 Y145.647 E24.32419
G1 X2.343 Y144.758 E24.36568
G1 X2.334 Y144.425 E24.38119
G1 X2.33 Y144.128 E24.39502
G1 X2.331 Y91.055 E26.86632
G1 X2.34 Y90.39 E26.89729
G1 X2.393 Y89.454 E26.94094
G1 X2.525 Y88.525 E26.98464
G1 X2.736 Y87.611 E27.02831
G1 X3.024 Y86.719 E27.07196
G1 X3.387 Y85.854 E27.11564
G1 X3.822 Y85.023 E27.15932
G1 X4.326 Y84.233 E27.20295
G1 X4.896 Y83.488 E27.24663
G1 X5.528 Y82.794 E27.29034
G1 X6.216 Y82.157 E27.334
G1 X6.956 Y81.581 E27.37766
G1 X7.742 Y81.069 E27.42134
G1 X8.569 Y80.627 E27.46501
G1 X9.431 Y80.257 E27.50869
G1 X10.321 Y79.961 E27.55236
G1 X11.233 Y79.743 E27.59602
G1 X12.16 Y79.602 E27.63968
G0 F6000 X12.489 Y79.973
G1 F1200 X13.042 Y79.943 E27.66547
G1 X13.363 Y79.934 E27.68043
G1 X13.66 Y79.93 E27.69426
G1 X220.963 Y79.93 E37.34715
G1 X221.813 Y79.941 E37.38673
G1 X222.732 Y79.994 E37.4296
G1 X223.643 Y80.127 E37.47247
G1 X224.539 Y80.338 E37.51533
G1 X225.413 Y80.626 E37.55818
G1 X226.26 Y80.989 E37.60109
G1 X227.071 Y81.424 E37.64394
G1 X227.841 Y81.928 E37.68679
G1 X228.565 Y82.497 E37.72967
G1 X229.237 Y83.127 E37.77256
G1 X229.852 Y83.812 E37.81543
G1 X230.405 Y84.548 E37.8583
G1 X230.892 Y85.329 E37.90115
G1 X231.309 Y86.15 E37.94403
G1 X231.654 Y87.004 E37.98692
G1 X231.923 Y87.884 E38.02977
G1 X232.115 Y88.785 E38.07267
G1 X232.228 Y89.698 E38.1155
G1 X232.257 Y90.242 E38.14087
G1 X232.266 Y90.562 E38.15578
G1 X232.27 Y90.86 E38.16965
G1 X232.269 Y143.865 E40.63779
G1 X232.26 Y144.592 E40.67164
G1 X232.209 Y145.511 E40.7145
G1 X232.078 Y146.423 E40.7574
G1 X231.868 Y147.319 E40.80026
G1 X231.582 Y148.194 E40.84312
G1 X231.221 Y149.041 E40.88599
G1 X230.787 Y149.853 E40.92887
G1 X230.285 Y150.625 E40.97174
G1 X229.717 Y151.35 E41.01463
G1 X229.089 Y152.023 E41.05749
G1 X228.405 Y152.639 E41.10035
G1 X227.67 Y153.193 E41.14321
G1 X226.89 Y153.682 E41.18608
G1 X226.07 Y154.101 E41.22896
G1 X225.217 Y154.447 E41.27182
G1 X224.337 Y154.718 E41.3147
G1 X223.437 Y154.911 E41.35756
G1 X222.523 Y155.026 E41.40045
G1 X221.958 Y155.057 E41.4268
G1 X221.637 Y155.066 E41.44175
G1 X221.34 Y155.07 E41.45558
G1 X13.9 Y155.069 E51.11486
G1 X13.202 Y155.06 E51.14736
G1 X12.283 Y155.008 E51.19022
G1 X11.372 Y154.877 E51.23308
G1 X10.476 Y154.667 E51.27593
G1 X9.601 Y154.38 E51.31881
G1 X8.754 Y154.018 E51.3617
G1 X7.942 Y153.584 E51.40458
G1 X7.171 Y153.082 E51.44742
G1 X6.446 Y152.514 E51.4903
G1 X5.773 Y151.885 E51.5332
G1 X5.158 Y151.201 E51.57603
G1 X4.604 Y150.466 E51.61888
G1 X4.116 Y149.685 E51.66177
G1 X3.697 Y148.865 E51.70465
G1 X3.351 Y148.012 E51.74751
G1 X3.081 Y147.132 E51.79037
G1 X2.888 Y146.231 E51.83328
G1 X2.774 Y145.318 E51.87612
G1 X2.743 Y144.747 E51.90275
G1 X2.734 Y144.414 E51.91826
G1 X2.73 Y144.128 E51.93158
G1 X2.731 Y91.061 E54.4026
G1 X2.74 Y90.396 E54.43357
G1 X2.792 Y89.476 E54.47647
G1 X2.924 Y88.565 E54.51934
G1 X3.135 Y87.669 E54.5622
G1 X3.422 Y86.794 E54.60508
G1 X3.785 Y85.948 E54.64795
G1 X4.219 Y85.136 E54.69082
G1 X4.722 Y84.365 E54.73368
G1 X5.291 Y83.641 E54.77656
G1 X5.919 Y82.969 E54.81939
G1 X6.604 Y82.353 E54.86229
G1 X7.34 Y81.8 E54.90515
G1 X8.121 Y81.312 E54.94803
G1 X8.941 Y80.894 E54.99089
G1 X9.795 Y80.549 E55.03378
G1 X10.675 Y80.279 E55.07664
G1 X11.575 Y80.087 E55.11949
G1 X12.489 Y79.973 E55.16238
G0 F6000 X11.914 Y80.439
G1 F1200 X13.053 Y80.343 E55.21561
G1 X13.374 Y80.334 E55.23056
G1 X13.66 Y80.33 E55.24388
G1 X220.963 Y80.33 E64.89677
G1 X221.807 Y80.341 E64.93608
G1 X222.709 Y80.394 E64.97815
G1 X223.602 Y80.526 E65.02019
G1 X224.48 Y80.737 E65.06223
G1 X225.336 Y81.025 E65.10429
G1 X226.163 Y81.387 E65.14632
G1 X226.955 Y81.822 E65.1884
G1 X227.706 Y82.324 E65.23046
G1 X228.409 Y82.891 E65.27252
G1 X229.059 Y83.518 E65.31457
G1 X229.651 Y84.2 E65.35662
G1 X230.181 Y84.931 E65.39867
G1 X230.643 Y85.707 E65.44072
G1 X231.036 Y86.52 E65.48277
G1 X231.354 Y87.365 E65.52481
G1 X231.597 Y88.235 E65.56687
G1 X231.762 Y89.123 E65.60892
G1 X231.857 Y90.253 E65.66173
G1 X231.866 Y90.573 E65.67663
G1 X231.87 Y90.86 E65.69
G1 X231.869 Y143.86 E68.1579
G1 X231.86 Y144.587 E68.19176
G1 X231.809 Y145.489 E68.23382
G1 X231.678 Y146.383 E68.2759
G1 X231.469 Y147.261 E68.31792
G1 X231.183 Y148.118 E68.35999
G1 X230.822 Y148.946 E68.40205
G1 X230.39 Y149.738 E68.44406
G1 X229.889 Y150.49 E68.48614
G1 X229.323 Y151.194 E68.5282
G1 X228.698 Y151.845 E68.57022
G1 X228.017 Y152.439 E68.6123
G1 X227.286 Y152.97 E68.65437
G1 X226.512 Y153.434 E68.69639
G1 X225.699 Y153.828 E68.73846
G1 X224.855 Y154.148 E68.78049
G1 X223.985 Y154.393 E68.82257
G1 X223.098 Y154.559 E68.86459
G1 X221.947 Y154.657 E68.91838
G1 X221.626 Y154.666 E68.93334
G1 X221.34 Y154.67 E68.94665
G1 X13.905 Y154.669 E78.6057
G1 X13.207 Y154.66 E78.6382
G1 X12.306 Y154.609 E78.68022
G1 X11.412 Y154.477 E78.7223
G1 X10.534 Y154.268 E78.76433
G1 X9.677 Y153.981 E78.80641
G1 X8.85 Y153.62 E78.84843
G1 X8.057 Y153.187 E78.8905
G1 X7.306 Y152.686 E78.93254
G1 X6.602 Y152.12 E78.9746
G1 X5.951 Y151.494 E79.01665
G1 X5.358 Y150.813 E79.0587
G1 X4.828 Y150.082 E79.10075
G1 X4.364 Y149.307 E79.14281
G1 X3.97 Y148.494 E79.18487
G1 X3.65 Y147.65 E79.2269
G1 X3.406 Y146.78 E79.26898
G1 X3.24 Y145.892 E79.31104
G1 X3.143 Y144.737 E79.36501
G1 X3.134 Y144.404 E79.38053
G1 X3.13 Y144.128 E79.39338
G1 X3.131 Y91.066 E81.86417
G1 X3.14 Y90.401 E81.89514
G1 X3.192 Y89.499 E81.93721
G1 X3.324 Y88.606 E81.97924
G1 X3.534 Y87.728 E82.02128
G1 X3.821 Y86.871 E82.06336
G1 X4.183 Y86.044 E82.1054
G1 X4.616 Y85.252 E82.14743
G1 X5.118 Y84.501 E82.18949
G1 X5.685 Y83.797 E82.23158
G1 X6.311 Y83.147 E82.2736
G1 X6.992 Y82.554 E82.31565
G1 X7.724 Y82.024 E82.35773
G1 X8.499 Y81.561 E82.39977
G1 X9.312 Y81.168 E82.44182
G1 X10.157 Y80.848 E82.48389
G1 X11.026 Y80.605 E82.52591
G1 X11.914 Y80.439 E82.56797
G1 F2700 E77.56797
;MESH:dylan-dart-stand.stl
G0 F6000 X56.407 Y94.864
G0 X70.668 Y94.903
G0 X70.734 Y99.509
G0 X78.48 Y102.02
G0 X78.547 Y94.903
G0 X100.692 Y94.903
G0 X100.757 Y109.243
G0 X108.472 Y111.744
G0 X108.539 Y100.43
G0 X131.586 Y100.438
G0 X132.09 Y99.934
G0 X133.312 Y94.907
G0 X144.232 Y123.338
G0 X152.855 Y126.134
G0 X155.917 Y134.312
G0 X158.339 Y127.912
G0 X165.039 Y130.084
G0 X161.288 Y140.103
G0 X184.424 Y140.097
G0 X184.489 Y136.39
G0 X195.944 Y140.105
G0 X194.56 Y139.69
G0 X193.874 Y141.35
;TYPE:WALL-INNER
G1 F2700 E82.56797
G1 F1200 X215.923 Y141.35 E83.59467
G1 X215.923 Y101.686 E85.44159
G1 X215.012 Y101.458 E85.48532
G1 X193.874 Y141.35 E87.58752
G0 F6000 X194.539 Y140.95
;TYPE:WALL-OUTER
G1 F1200 X215.523 Y140.95 E88.56462
G1 X215.523 Y101.998 E90.37839
G1 X215.219 Y101.922 E90.39298
G1 X194.539 Y140.95 E92.44964
G1 F2700 E87.44964
G0 F6000 X194.275 Y140.81
G0 X195.591 Y137.702
G0 X196.878 Y138.383
G0 X192.089 Y131.064
G0 X190.654 Y131.064
G0 X190.824 Y135.174
;TYPE:WALL-INNER
G1 F2700 E92.44964
G1 F1200 X191.735 Y135.402 E92.49337
G1 X213.859 Y93.65 E94.6936
G1 X190.824 Y93.65 E95.7662
G1 X190.824 Y135.174 E97.69974
G0 F6000 X191.224 Y134.862
;TYPE:WALL-OUTER
G1 F1200 X191.528 Y134.938 E97.71433
G1 X213.194 Y94.05 E99.86902
G1 X191.224 Y94.05 E100.89203
G1 X191.224 Y134.862 E102.79241
G1 F2700 E97.79241
G0 F6000 X191.151 Y135.152
G0 X190.634 Y107.285
G0 X192.089 Y107.285
G0 X184.49 Y104.76
G0 X184.424 Y94.903
G0 X178.52 Y94.907
G0 X175.788 Y101.87
G0 X168.695 Y99.515
G0 X170.086 Y100.007
G0 X167.167 Y107.117
G0 X144.643 Y107.285
;TYPE:WALL-INNER
G1 F2700 E102.79241
G1 F1200 X167.286 Y107.285 E103.84676
G1 X172.115 Y93.65 E104.52031
G1 X139.814 Y93.65 E106.02438
G1 X144.643 Y107.285 E106.69792
G0 F6000 X144.926 Y106.885
;TYPE:WALL-OUTER
G1 F1200 X167.003 Y106.885 E107.72592
G1 X171.549 Y94.05 E108.35995
G1 X140.38 Y94.05 E109.81131
G1 X144.926 Y106.885 E110.44534
G1 F2700 E105.44534
G0 F6000 X144.926 Y107.185
G0 X155.498 Y107.475
G0 X155.498 Y106.02
G0 X155.498 Y112.739
G0 X155.498 Y111.284
G0 X146.437 Y111.652
G0 X155.498 Y136.759
;TYPE:WALL-INNER
G1 F2700 E110.44534
G1 F1200 X156.334 Y136.759 E110.48427
G1 X165.683 Y111.474 E111.73955
G1 X146.182 Y111.474 E112.6476
G1 X155.498 Y136.759 E113.90234
G0 F6000 X155.777 Y136.359
;TYPE:WALL-OUTER
G1 F1200 X156.055 Y136.359 E113.91529
G1 X165.109 Y111.874 E115.13086
G1 X146.756 Y111.874 E115.98546
G1 X155.777 Y136.359 E117.2005
G1 F2700 E112.2005
G0 F6000 X155.496 Y136.46
G0 X154.651 Y134.951
G0 X155.917 Y134.312
G0 X161.742 Y138.963
G0 X160.381 Y138.445
G0 X159.479 Y141.35
;TYPE:WALL-INNER
G1 F2700 E117.2005
G1 F1200 X185.677 Y141.35 E118.42039
G1 X185.677 Y93.65 E120.6415
G1 X177.653 Y93.65 E121.01513
G1 X159.479 Y141.35 E123.392
G0 F6000 X160.059 Y140.95
;TYPE:WALL-OUTER
G1 F1200 X185.277 Y140.95 E124.56625
G1 X185.277 Y94.05 E126.75011
G1 X177.929 Y94.05 E127.09227
G1 X160.059 Y140.95 E129.42928
G1 F2700 E124.42928
G0 F6000 X159.78 Y140.843
G0 X159.971 Y139.578
G0 X161.313 Y140.088
G0 X150.353 Y139.361
G0 X150.574 Y140.103
G0 X108.539 Y140.097
G0 X108.47 Y136.586
G0 X100.76 Y136.076
G0 X100.692 Y140.097
G0 X94.089 Y140.09
G0 X90.856 Y135.42
G0 X82.051 Y134.836
G0 X74.655 Y123.882
G0 X67.835 Y133.895
G0 X59.751 Y133.359
G0 X55.126 Y140.09
G0 X51.159 Y133.265
G0 X51.342 Y132.802
G0 X42.002 Y132.185
G0 X42.876 Y133.357
G0 X41.97 Y133.907
;TYPE:WALL-INNER
G1 F2700 E129.42928
G1 F1200 X42.38 Y133.557 E129.45438
G1 X42.749 Y133.214 E129.47784
G1 X42.872 Y133.104 E129.48553
G1 X43.105 Y132.871 E129.50087
G1 X43.331 Y132.633 E129.51615
G1 X43.68 Y132.24 E129.54063
G1 X44.051 Y131.783 E129.56804
G1 X44.106 Y131.701 E129.57263
G1 X44.468 Y131.211 E129.601
G1 X44.816 Y130.686 E129.63033
G1 X45.153 Y130.122 E129.66092
G1 X45.458 Y129.556 E129.69086
G1 X45.74 Y128.97 E129.72114
G1 X45.817 Y128.798 E129.72992
G1 X46.103 Y128.127 E129.76388
G1 X46.392 Y127.346 E129.80266
G1 X46.649 Y126.531 E129.84245
G1 X46.875 Y125.681 E129.88341
G1 X47.086 Y124.722 E129.92913
G1 X47.146 Y124.493 E129.94015
G1 X47.352 Y123.267 E129.99804
G1 X47.521 Y121.845 E130.06472
G1 X47.636 Y120.201 E130.14146
G1 X47.674 Y118.471 E130.22203
G1 X47.668 Y118.32 E130.22907
G1 X47.662 Y117.688 E130.2585
G1 X47.645 Y117.041 E130.28864
G1 X47.59 Y115.938 E130.34006
G1 X47.494 Y114.816 E130.3925
G1 X47.369 Y113.778 E130.44118
G1 X47.234 Y112.909 E130.48213
G1 X47.114 Y112.273 E130.51227
G1 X46.942 Y111.48 E130.55005
G1 X46.79 Y110.875 E130.5791
G1 X46.626 Y110.287 E130.60752
G1 X46.443 Y109.712 E130.63562
G1 X46.22 Y109.072 E130.66718
G1 X46.003 Y108.52 E130.6948
G1 X45.745 Y107.927 E130.72491
G1 X45.495 Y107.407 E130.75178
G1 X45.218 Y106.882 E130.77942
G1 X44.932 Y106.386 E130.80608
G1 X44.622 Y105.894 E130.83316
G1 X44.309 Y105.443 E130.85872
G1 X43.981 Y105.009 E130.88405
G1 X43.639 Y104.593 E130.90913
G1 X43.278 Y104.191 E130.93428
G1 X42.919 Y103.827 E130.95809
G1 X42.767 Y103.678 E130.968
G1 X42.417 Y103.349 E130.99037
G1 X42.043 Y103.026 E131.01338
G1 X41.59 Y102.667 E131.04029
G1 X41.115 Y102.323 E131.0676
G1 X40.598 Y101.984 E131.09639
G1 X40.071 Y101.67 E131.12496
G1 X39.45 Y101.336 E131.15779
G1 X38.763 Y101.007 E131.19326
G1 X38.052 Y100.708 E131.22917
G1 X37.938 Y100.663 E131.23488
G1 X37.202 Y100.389 E131.27145
G1 X36.346 Y100.117 E131.31327
G1 X35.354 Y99.852 E131.36108
G1 X34.159 Y99.592 E131.41803
G1 X32.942 Y99.384 E131.47552
G1 X31.488 Y99.21 E131.54371
G1 X29.842 Y99.091 E131.62055
G1 X27.937 Y99.047 E131.70928
G1 X27.79 Y99.039 E131.71614
G1 X19.271 Y99.039 E132.11282
G1 X19.271 Y137.821 E133.91867
G1 X27.825 Y137.82 E134.31698
G1 X27.929 Y137.816 E134.32182
G1 X28.755 Y137.807 E134.36029
G1 X29.59 Y137.781 E134.39919
G1 X30.712 Y137.715 E134.45152
G1 X31.839 Y137.616 E134.5042
G1 X32.914 Y137.48 E134.55466
G1 X33.924 Y137.317 E134.6023
G1 X34.791 Y137.141 E134.64349
G1 X35.56 Y136.959 E134.68029
G1 X36.17 Y136.798 E134.70967
G1 X36.762 Y136.62 E134.73845
G1 X37.339 Y136.427 E134.76678
G1 X37.899 Y136.22 E134.79458
G1 X38.549 Y135.954 E134.82729
G1 X39.083 Y135.712 E134.85458
G1 X39.621 Y135.443 E134.88259
G1 X40.13 Y135.165 E134.9096
G1 X40.634 Y134.862 E134.93698
G1 X41.096 Y134.56 E134.96268
G1 X41.543 Y134.24 E134.98828
G1 X41.97 Y133.907 E135.0135
G0 F6000 X41.717 Y133.597
;TYPE:WALL-OUTER
G1 F1200 X42.114 Y133.258 E135.0378
G1 X42.482 Y132.916 E135.0612
G1 X42.597 Y132.813 E135.06839
G1 X42.819 Y132.592 E135.08297
G1 X43.036 Y132.363 E135.09766
G1 X43.375 Y131.981 E135.12144
G1 X43.729 Y131.545 E135.14759
G1 X43.784 Y131.463 E135.15219
G1 X44.14 Y130.981 E135.18009
G1 X44.478 Y130.473 E135.20851
G1 X44.805 Y129.925 E135.23822
G1 X45.101 Y129.374 E135.26735
G1 X45.377 Y128.801 E135.29696
G1 X45.45 Y128.638 E135.30528
G1 X45.731 Y127.979 E135.33864
G1 X46.013 Y127.216 E135.37651
G1 X46.265 Y126.419 E135.41544
G1 X46.486 Y125.587 E135.45552
G1 X46.695 Y124.636 E135.50086
G1 X46.754 Y124.409 E135.51178
G1 X46.956 Y123.21 E135.5684
G1 X47.123 Y121.807 E135.63419
G1 X47.236 Y120.183 E135.70999
G1 X47.274 Y118.475 E135.78954
G1 X47.268 Y118.337 E135.79598
G1 X47.262 Y117.695 E135.82587
G1 X47.245 Y117.056 E135.85564
G1 X47.191 Y115.965 E135.9065
G1 X47.096 Y114.857 E135.95828
G1 X46.973 Y113.833 E136.00631
G1 X46.84 Y112.977 E136.04664
G1 X46.722 Y112.353 E136.07622
G1 X46.552 Y111.571 E136.11348
G1 X46.403 Y110.977 E136.142
G1 X46.243 Y110.401 E136.16983
G1 X46.064 Y109.839 E136.1973
G1 X45.845 Y109.211 E136.22827
G1 X45.633 Y108.673 E136.25519
G1 X45.381 Y108.093 E136.28464
