;FLAVOR:Marlin
;TIME:3517
;Filament used: 6.7174m
;Layer height: 0.28
;MINX:56.5
;MINY:56.5
;MINZ:0.28
;MAXX:178.5
;MAXY:178.5
;MAXZ:22.96
;Generated with Cura_SteamEngine master
M140 S50
M105
M190 S50
M104 S200
M105
M109 S200
M82 ;absolute extrusion mode
; Ender 3 Custom Start G-code
G92 E0 ; Reset Extruder
G28 ; Home all axes
G1 Z2.0 F3000 ; Move Z Axis up little to prevent scratching of Heat Bed
G1 X0.1 Y20 Z0.3 F5000.0 ; Move to start position
G1 X0.1 Y200.0 Z0.3 F1500.0 E15 ; Draw the first line
G1 X0.4 Y200.0 Z0.3 F5000.0 ; Move to side a little
G1 X0.4 Y20 Z0.3 F1500.0 E30 ; Draw the second line
G92 E0 ; Reset Extruder
G1 Z2.0 F3000 ; Move Z Axis up little to prevent scratching of Heat Bed
G1 X5 Y20 Z0.3 F5000.0 ; Move over to prevent blob squish
G92 E0
G92 E0
G1 F2700 E-5
;LAYER_COUNT:82
;LAYER:0
M107
G0 F6000 X59.698 Y59.764 Z0.28
;TYPE:SKIRT
G1 F2700 E0
G1 F1200 X60.386 Y59.127 E0.04366
G1 X61.126 Y58.551 E0.08732
G1 X61.912 Y58.039 E0.131
G1 X62.739 Y57.597 E0.17467
G1 X63.601 Y57.227 E0.21835
G1 X64.491 Y56.931 E0.26202
G1 X65.403 Y56.713 E0.30568
G1 X66.33 Y56.572 E0.34935
G1 X67.201 Y56.513 E0.39
G1 X67.522 Y56.504 E0.40495
G1 X67.83 Y56.5 E0.41929
G1 X166.793 Y56.5 E5.02742
G1 X167.649 Y56.511 E5.06729
G1 X168.585 Y56.565 E5.11094
G1 X169.513 Y56.697 E5.15459
G1 X170.427 Y56.909 E5.19828
G1 X171.319 Y57.198 E5.24194
G1 X172.184 Y57.561 E5.28562
G1 X173.014 Y57.997 E5.32928
G1 X173.805 Y58.502 E5.37298
G1 X174.549 Y59.073 E5.41665
G1 X175.242 Y59.705 E5.46032
G1 X175.879 Y60.393 E5.50398
G1 X176.454 Y61.134 E5.54765
G1 X176.965 Y61.92 E5.59131
G1 X177.407 Y62.748 E5.63501
G1 X177.776 Y63.61 E5.67867
G1 X178.071 Y64.5 E5.72233
G1 X178.289 Y65.412 E5.76599
G1 X178.429 Y66.34 E5.80969
G1 X178.487 Y67.201 E5.84988
G1 X178.496 Y67.521 E5.86478
G1 X178.5 Y67.83 E5.87917
G1 X178.499 Y166.9 E10.49229
G1 X178.49 Y167.627 E10.52614
G1 X178.439 Y168.564 E10.56984
G1 X178.307 Y169.492 E10.61348
G1 X178.098 Y170.406 E10.65714
G1 X177.811 Y171.299 E10.70082
G1 X177.449 Y172.165 E10.74452
G1 X177.015 Y172.996 E10.78818
G1 X176.511 Y173.787 E10.83185
G1 X175.942 Y174.532 E10.8755
G1 X175.311 Y175.227 E10.91921
G1 X174.624 Y175.865 E10.96287
G1 X173.885 Y176.442 E11.00653
G1 X173.099 Y176.954 E11.05021
G1 X172.273 Y177.397 E11.09385
G1 X171.411 Y177.769 E11.13757
G1 X170.522 Y178.065 E11.1812
G1 X169.61 Y178.285 E11.22488
G1 X168.683 Y178.426 E11.26854
G1 X167.799 Y178.487 E11.30981
G1 X167.478 Y178.496 E11.32476
G1 X167.17 Y178.5 E11.3391
G1 X68.065 Y178.499 E15.95385
G1 X67.367 Y178.49 E15.98635
G1 X66.431 Y178.438 E16.03
G1 X65.502 Y178.306 E16.07369
G1 X64.588 Y178.096 E16.11736
G1 X63.695 Y177.809 E16.16104
G1 X62.83 Y177.446 E16.20472
G1 X61.999 Y177.012 E16.24837
G1 X61.208 Y176.508 E16.29205
G1 X60.463 Y175.938 E16.33573
G1 X59.769 Y175.307 E16.3794
G1 X59.132 Y174.62 E16.42303
G1 X58.555 Y173.88 E16.46672
G1 X58.043 Y173.094 E16.5104
G1 X57.6 Y172.267 E16.55409
G1 X57.229 Y171.406 E16.59774
G1 X56.933 Y170.516 E16.64142
G1 X56.714 Y169.604 E16.68509
G1 X56.573 Y168.677 E16.72875
G1 X56.513 Y167.788 E16.77024
G1 X56.504 Y167.455 E16.78575
G1 X56.5 Y167.158 E16.79958
G1 X56.501 Y68.025 E21.41563
G1 X56.51 Y67.36 E21.4466
G1 X56.563 Y66.424 E21.49025
G1 X56.695 Y65.495 E21.53395
G1 X56.906 Y64.581 E21.57762
G1 X57.194 Y63.689 E21.62127
G1 X57.557 Y62.824 E21.66495
G1 X57.992 Y61.993 E21.70863
G1 X58.496 Y61.203 E21.75226
G1 X59.066 Y60.458 E21.79594
G1 X59.698 Y59.764 E21.83965
G0 F6000 X60.089 Y59.939
G1 F1200 X60.774 Y59.323 E21.88255
G1 X61.51 Y58.77 E21.92541
G1 X62.291 Y58.282 E21.96829
G1 X63.111 Y57.864 E22.01115
G1 X63.965 Y57.519 E22.05404
G1 X64.845 Y57.249 E22.0969
G1 X65.745 Y57.057 E22.13975
G1 X66.659 Y56.943 E22.18264
G1 X67.212 Y56.913 E22.20843
G1 X67.533 Y56.904 E22.22338
G1 X67.83 Y56.9 E22.23721
G1 X166.793 Y56.9 E26.84535
G1 X167.643 Y56.911 E26.88493
G1 X168.562 Y56.964 E26.92779
G1 X169.473 Y57.097 E26.97066
G1 X170.369 Y57.308 E27.01352
G1 X171.243 Y57.596 E27.05637
G1 X172.09 Y57.959 E27.09928
G1 X172.901 Y58.394 E27.14214
G1 X173.671 Y58.898 E27.18499
G1 X174.395 Y59.467 E27.22787
G1 X175.067 Y60.097 E27.27076
G1 X175.682 Y60.782 E27.31362
G1 X176.235 Y61.518 E27.35649
G1 X176.722 Y62.299 E27.39935
G1 X177.139 Y63.12 E27.44223
G1 X177.484 Y63.974 E27.48511
G1 X177.753 Y64.854 E27.52796
G1 X177.945 Y65.755 E27.57086
G1 X178.058 Y66.668 E27.6137
G1 X178.087 Y67.212 E27.63906
G1 X178.096 Y67.532 E27.65397
G1 X178.1 Y67.83 E27.66785
G1 X178.099 Y166.895 E32.28073
G1 X178.09 Y167.622 E32.31458
G1 X178.039 Y168.541 E32.35744
G1 X177.908 Y169.453 E32.40034
G1 X177.698 Y170.349 E32.4432
G1 X177.412 Y171.224 E32.48606
G1 X177.051 Y172.071 E32.52893
G1 X176.617 Y172.883 E32.57181
G1 X176.115 Y173.655 E32.61468
G1 X175.547 Y174.38 E32.65757
G1 X174.919 Y175.053 E32.70043
G1 X174.235 Y175.669 E32.74329
G1 X173.5 Y176.223 E32.78615
G1 X172.72 Y176.712 E32.82902
G1 X171.9 Y177.131 E32.8719
G1 X171.047 Y177.477 E32.91476
G1 X170.167 Y177.748 E32.95764
G1 X169.267 Y177.941 E33.0005
G1 X168.353 Y178.056 E33.04339
G1 X167.788 Y178.087 E33.06974
G1 X167.467 Y178.096 E33.08469
G1 X167.17 Y178.1 E33.09852
G1 X68.07 Y178.099 E37.71304
G1 X67.372 Y178.09 E37.74554
G1 X66.453 Y178.038 E37.7884
G1 X65.542 Y177.907 E37.83126
G1 X64.646 Y177.697 E37.87411
G1 X63.771 Y177.41 E37.91699
G1 X62.924 Y177.048 E37.95988
G1 X62.112 Y176.614 E38.00275
G1 X61.341 Y176.112 E38.04559
G1 X60.616 Y175.544 E38.08848
G1 X59.943 Y174.915 E38.13137
G1 X59.328 Y174.231 E38.1742
G1 X58.774 Y173.496 E38.21706
G1 X58.286 Y172.715 E38.25994
G1 X57.867 Y171.895 E38.30282
G1 X57.521 Y171.042 E38.34568
G1 X57.251 Y170.162 E38.38855
G1 X57.058 Y169.261 E38.43145
G1 X56.944 Y168.348 E38.47429
G1 X56.913 Y167.777 E38.50092
G1 X56.904 Y167.444 E38.51643
G1 X56.9 Y167.158 E38.52975
G1 X56.901 Y68.031 E43.14552
G1 X56.91 Y67.366 E43.17649
G1 X56.962 Y66.446 E43.2194
G1 X57.094 Y65.535 E43.26226
G1 X57.305 Y64.639 E43.30512
G1 X57.592 Y63.764 E43.348
G1 X57.955 Y62.918 E43.39087
G1 X58.389 Y62.106 E43.43374
G1 X58.892 Y61.335 E43.47661
G1 X59.461 Y60.611 E43.51948
G1 X60.089 Y59.939 E43.56231
G0 F6000 X60.481 Y60.117
G1 F1200 X61.162 Y59.524 E43.60436
G1 X61.894 Y58.994 E43.64644
G1 X62.669 Y58.531 E43.68848
G1 X63.482 Y58.138 E43.73052
G1 X64.327 Y57.818 E43.7726
G1 X65.196 Y57.575 E43.81461
G1 X66.084 Y57.409 E43.85668
G1 X67.223 Y57.313 E43.9099
G1 X67.544 Y57.304 E43.92486
G1 X67.83 Y57.3 E43.93818
G1 X166.793 Y57.3 E48.54631
G1 X167.637 Y57.311 E48.58561
G1 X168.539 Y57.364 E48.62769
G1 X169.432 Y57.496 E48.66972
G1 X170.31 Y57.707 E48.71177
G1 X171.166 Y57.995 E48.75382
G1 X171.993 Y58.357 E48.79586
G1 X172.785 Y58.792 E48.83793
G1 X173.536 Y59.294 E48.87999
G1 X174.239 Y59.861 E48.92205
G1 X174.889 Y60.488 E48.9641
G1 X175.481 Y61.17 E49.00616
G1 X176.011 Y61.901 E49.0482
G1 X176.473 Y62.677 E49.09025
G1 X176.866 Y63.49 E49.1323
G1 X177.184 Y64.335 E49.17434
G1 X177.427 Y65.205 E49.2164
G1 X177.592 Y66.093 E49.25846
G1 X177.687 Y67.223 E49.31126
G1 X177.696 Y67.543 E49.32617
G1 X177.7 Y67.83 E49.33953
G1 X177.699 Y166.89 E53.95218
G1 X177.69 Y167.617 E53.98604
G1 X177.639 Y168.519 E54.0281
G1 X177.508 Y169.413 E54.07018
G1 X177.299 Y170.291 E54.1122
G1 X177.013 Y171.148 E54.15427
G1 X176.652 Y171.976 E54.19633
G1 X176.22 Y172.768 E54.23834
G1 X175.719 Y173.52 E54.28042
G1 X175.153 Y174.224 E54.32248
G1 X174.528 Y174.875 E54.3645
G1 X173.847 Y175.469 E54.40658
G1 X173.116 Y176 E54.44865
G1 X172.342 Y176.464 E54.49067
G1 X171.529 Y176.858 E54.53274
G1 X170.685 Y177.178 E54.57477
G1 X169.815 Y177.423 E54.61685
G1 X168.928 Y177.589 E54.65887
G1 X167.777 Y177.687 E54.71266
G1 X167.456 Y177.696 E54.72762
G1 X167.17 Y177.7 E54.74094
G1 X68.075 Y177.699 E59.35521
G1 X67.377 Y177.69 E59.38772
G1 X66.476 Y177.639 E59.42974
G1 X65.582 Y177.507 E59.47182
G1 X64.704 Y177.298 E59.51384
G1 X63.847 Y177.011 E59.55593
G1 X63.02 Y176.65 E59.59795
G1 X62.227 Y176.217 E59.64002
G1 X61.476 Y175.716 E59.68205
G1 X60.772 Y175.15 E59.72412
G1 X60.121 Y174.524 E59.76617
G1 X59.528 Y173.843 E59.80822
G1 X58.998 Y173.112 E59.85026
G1 X58.534 Y172.337 E59.89232
G1 X58.14 Y171.524 E59.93439
G1 X57.82 Y170.68 E59.97642
G1 X57.576 Y169.81 E60.01849
G1 X57.41 Y168.922 E60.06056
G1 X57.313 Y167.767 E60.11453
G1 X57.304 Y167.434 E60.13004
G1 X57.3 Y167.158 E60.1429
G1 X57.301 Y68.036 E64.75843
G1 X57.31 Y67.371 E64.7894
G1 X57.362 Y66.469 E64.83147
G1 X57.494 Y65.576 E64.8735
G1 X57.704 Y64.698 E64.91554
G1 X57.991 Y63.841 E64.95762
G1 X58.353 Y63.014 E64.99966
G1 X58.786 Y62.222 E65.04169
G1 X59.288 Y61.471 E65.08375
G1 X59.855 Y60.767 E65.12584
G1 X60.481 Y60.117 E65.16787
G1 F2700 E60.16787
;MESH:100mmVent.stl
G0 F6000 X160.79 Y73.938
G0 X159.745 Y74.974
G0 X160.939 Y75.525
;TYPE:WALL-INNER
G1 F2700 E65.16787
G1 F1200 X161.34 Y75.595 E65.18682
G1 X161.662 Y75.595 E65.20181
G1 X162.057 Y75.527 E65.22048
G1 X162.358 Y75.418 E65.23538
G1 X162.638 Y75.266 E65.25022
G1 X162.887 Y75.079 E65.26472
G1 X163.109 Y74.851 E65.27954
G1 X163.293 Y74.595 E65.29422
G1 X163.435 Y74.318 E65.30871
G1 X163.537 Y74.018 E65.32347
G1 X163.592 Y73.704 E65.33831
G1 X163.592 Y73.295 E65.35735
G1 X163.537 Y72.981 E65.3722
G1 X163.435 Y72.682 E65.38691
G1 X163.293 Y72.405 E65.4014
G1 X163.109 Y72.149 E65.41608
G1 X162.889 Y71.923 E65.43077
G1 X162.639 Y71.735 E65.44533
G1 X162.364 Y71.585 E65.45992
G1 X162.06 Y71.474 E65.47499
G1 X161.674 Y71.407 E65.49323
G1 X161.543 Y71.399 E65.49934
G1 X161.231 Y71.416 E65.51389
G1 X160.834 Y71.507 E65.53286
G1 X160.54 Y71.631 E65.54772
G1 X160.268 Y71.798 E65.56258
G1 X159.963 Y72.066 E65.58148
G1 X159.763 Y72.318 E65.59647
G1 X159.605 Y72.592 E65.61119
G1 X159.464 Y72.974 E65.63015
G1 X159.408 Y73.296 E65.64537
G1 X159.408 Y73.705 E65.66442
G1 X159.463 Y74.019 E65.67926
G1 X159.565 Y74.318 E65.69397
G1 X159.707 Y74.595 E65.70847
G1 X159.891 Y74.851 E65.72315
G1 X160.111 Y75.077 E65.73783
G1 X160.361 Y75.265 E65.7524
G1 X160.636 Y75.415 E65.76698
G1 X160.939 Y75.525 E65.78199
G0 F6000 X161.043 Y75.137
;TYPE:WALL-OUTER
G1 F1200 X161.375 Y75.195 E65.79769
G1 X161.628 Y75.195 E65.80947
G1 X161.954 Y75.139 E65.82487
G1 X162.193 Y75.052 E65.83671
G1 X162.422 Y74.928 E65.84884
G1 X162.622 Y74.778 E65.86048
G1 X162.802 Y74.593 E65.8725
G1 X162.951 Y74.386 E65.88438
G1 X163.066 Y74.162 E65.8961
G1 X163.148 Y73.919 E65.90804
G1 X163.192 Y73.669 E65.91986
G1 X163.192 Y73.33 E65.93565
G1 X163.148 Y73.08 E65.94747
G1 X163.066 Y72.838 E65.95937
G1 X162.951 Y72.614 E65.97109
G1 X162.802 Y72.407 E65.98297
G1 X162.624 Y72.224 E65.99485
G1 X162.422 Y72.072 E66.00662
G1 X162.199 Y71.951 E66.01844
G1 X161.956 Y71.862 E66.03049
G1 X161.628 Y71.805 E66.04599
G1 X161.542 Y71.8 E66.05
G1 X161.287 Y71.814 E66.06189
G1 X160.957 Y71.889 E66.07765
G1 X160.723 Y71.988 E66.08948
G1 X160.506 Y72.121 E66.10133
G1 X160.254 Y72.343 E66.11697
G1 X160.095 Y72.543 E66.12887
G1 X159.969 Y72.762 E66.14063
G1 X159.852 Y73.079 E66.15637
G1 X159.808 Y73.331 E66.16828
G1 X159.808 Y73.67 E66.18407
G1 X159.852 Y73.92 E66.19589
G1 X159.934 Y74.162 E66.20778
G1 X160.049 Y74.386 E66.21951
G1 X160.198 Y74.593 E66.23138
G1 X160.376 Y74.776 E66.24327
G1 X160.578 Y74.928 E66.25504
G1 X160.801 Y75.049 E66.26686
G1 X161.043 Y75.137 E66.27885
G0 F6000 X160.93 Y75.562
G1 F2700 E61.27885
G0 F6000 X159.745 Y74.974
G0 X160.861 Y74.037
G0 X137.592 Y74.036
G0 X137.175 Y73.899
G0 X97.812 Y73.905
G0 X97.404 Y74.037
G0 X74.136 Y74.039
G0 X75.255 Y74.974
G0 X74.057 Y75.527
;TYPE:WALL-INNER
G1 F2700 E66.27885
G1 F1200 X74.358 Y75.418 E66.29375
G1 X74.638 Y75.266 E66.30859
G1 X74.887 Y75.079 E66.32309
G1 X75.109 Y74.851 E66.33791
G1 X75.293 Y74.595 E66.35259
G1 X75.435 Y74.318 E66.36708
G1 X75.537 Y74.018 E66.38184
G1 X75.592 Y73.704 E66.39668
G1 X75.592 Y73.295 E66.41572
G1 X75.537 Y72.981 E66.43057
G1 X75.435 Y72.682 E66.44528
G1 X75.293 Y72.405 E66.45977
G1 X75.109 Y72.149 E66.47445
G1 X74.889 Y71.923 E66.48914
G1 X74.639 Y71.735 E66.5037
G1 X74.364 Y71.585 E66.51829
G1 X74.06 Y71.474 E66.53336
G1 X73.674 Y71.407 E66.5516
G1 X73.543 Y71.399 E66.55771
G1 X73.231 Y71.416 E66.57226
G1 X72.834 Y71.507 E66.59123
G1 X72.54 Y71.631 E66.60609
G1 X72.268 Y71.798 E66.62095
G1 X71.963 Y72.066 E66.63986
G1 X71.763 Y72.318 E66.65484
G1 X71.605 Y72.592 E66.66956
G1 X71.464 Y72.974 E66.68852
G1 X71.408 Y73.296 E66.70374
G1 X71.408 Y73.705 E66.72279
G1 X71.463 Y74.019 E66.73763
G1 X71.565 Y74.318 E66.75234
G1 X71.707 Y74.595 E66.76684
G1 X71.891 Y74.851 E66.78152
G1 X72.111 Y75.077 E66.7962
G1 X72.361 Y75.265 E66.81077
G1 X72.636 Y75.415 E66.82535
G1 X72.939 Y75.525 E66.84036
G1 X73.34 Y75.595 E66.85932
G1 X73.662 Y75.595 E66.87431
G1 X74.057 Y75.527 E66.89298
G0 F6000 X73.954 Y75.139
;TYPE:WALL-OUTER
G1 F1200 X74.193 Y75.052 E66.90482
G1 X74.422 Y74.928 E66.91695
G1 X74.622 Y74.778 E66.92859
G1 X74.802 Y74.593 E66.94061
G1 X74.951 Y74.386 E66.95248
G1 X75.066 Y74.162 E66.96421
G1 X75.148 Y73.919 E66.97615
G1 X75.192 Y73.669 E66.98797
G1 X75.192 Y73.33 E67.00375
G1 X75.148 Y73.08 E67.01557
G1 X75.066 Y72.838 E67.02747
G1 X74.951 Y72.614 E67.0392
G1 X74.802 Y72.407 E67.05107
G1 X74.624 Y72.224 E67.06296
G1 X74.422 Y72.072 E67.07473
G1 X74.199 Y71.951 E67.08654
G1 X73.956 Y71.862 E67.09859
G1 X73.628 Y71.805 E67.1141
G1 X73.542 Y71.8 E67.11811
G1 X73.287 Y71.814 E67.13
G1 X72.957 Y71.889 E67.14576
G1 X72.723 Y71.988 E67.15759
G1 X72.506 Y72.121 E67.16944
G1 X72.254 Y72.343 E67.18508
G1 X72.095 Y72.543 E67.19698
G1 X71.969 Y72.762 E67.20874
G1 X71.852 Y73.079 E67.22447
G1 X71.808 Y73.331 E67.23639
G1 X71.808 Y73.67 E67.25217
G1 X71.852 Y73.92 E67.26399
G1 X71.934 Y74.162 E67.27589
G1 X72.049 Y74.386 E67.28761
G1 X72.198 Y74.593 E67.29949
G1 X72.376 Y74.776 E67.31138
G1 X72.578 Y74.928 E67.32315
G1 X72.801 Y75.049 E67.33496
G1 X73.043 Y75.137 E67.34695
G1 X73.375 Y75.195 E67.36265
G1 X73.628 Y75.195 E67.37443
G1 X73.954 Y75.139 E67.38983
G0 F6000 X74.066 Y75.564
G1 F2700 E62.38983
G0 F6000 X73.679 Y75.786
G0 X73.554 Y74.331
G0 X73.548 Y98.497
G0 X73.417 Y98.926
G0 X73.417 Y136.074
G0 X73.539 Y136.479
G0 X73.534 Y160.666
G0 X73.544 Y159.209
G0 X74.783 Y160.043
G0 X75.156 Y160.489
G0 X75.38 Y161.021
G0 X75.431 Y161.689
G0 X75.287 Y162.255
G0 X74.986 Y162.747
G0 X74.057 Y163.527
;TYPE:WALL-INNER
G1 F2700 E67.38983
G1 F1200 X74.358 Y163.418 E67.40474
G1 X74.638 Y163.266 E67.41957
G1 X74.887 Y163.079 E67.43407
G1 X75.109 Y162.851 E67.44889
G1 X75.293 Y162.595 E67.46357
G1 X75.435 Y162.318 E67.47806
G1 X75.537 Y162.018 E67.49282
G1 X75.592 Y161.704 E67.50766
G1 X75.592 Y161.295 E67.52671
G1 X75.537 Y160.981 E67.54155
G1 X75.435 Y160.682 E67.55626
G1 X75.293 Y160.405 E67.57076
G1 X75.109 Y160.149 E67.58544
G1 X74.889 Y159.923 E67.60012
G1 X74.639 Y159.735 E67.61469
G1 X74.364 Y159.585 E67.62927
G1 X74.06 Y159.474 E67.64434
G1 X73.674 Y159.407 E67.66259
G1 X73.543 Y159.399 E67.6687
G1 X73.231 Y159.416 E67.68325
G1 X72.834 Y159.507 E67.70221
G1 X72.54 Y159.631 E67.71707
G1 X72.268 Y159.798 E67.73193
G1 X71.963 Y160.066 E67.75084
G1 X71.763 Y160.318 E67.76582
G1 X71.605 Y160.592 E67.78055
G1 X71.464 Y160.974 E67.79951
G1 X71.408 Y161.296 E67.81473
G1 X71.408 Y161.705 E67.83377
G1 X71.463 Y162.019 E67.84861
G1 X71.565 Y162.318 E67.86332
G1 X71.707 Y162.595 E67.87782
G1 X71.891 Y162.851 E67.8925
G1 X72.111 Y163.077 E67.90718
G1 X72.361 Y163.265 E67.92175
G1 X72.636 Y163.415 E67.93634
G1 X72.939 Y163.525 E67.95135
G1 X73.34 Y163.595 E67.9703
G1 X73.662 Y163.595 E67.98529
G1 X74.057 Y163.527 E68.00396
G0 F6000 X73.954 Y163.139
;TYPE:WALL-OUTER
G1 F1200 X74.193 Y163.052 E68.0158
G1 X74.422 Y162.928 E68.02793
G1 X74.622 Y162.778 E68.03957
G1 X74.802 Y162.593 E68.05159
G1 X74.951 Y162.386 E68.06346
G1 X75.066 Y162.162 E68.07519
G1 X75.148 Y161.919 E68.08713
G1 X75.192 Y161.669 E68.09895
G1 X75.192 Y161.33 E68.11474
G1 X75.148 Y161.08 E68.12656
G1 X75.066 Y160.838 E68.13845
G1 X74.951 Y160.614 E68.15018
G1 X74.802 Y160.407 E68.16205
G1 X74.624 Y160.224 E68.17394
G1 X74.422 Y160.072 E68.18571
G1 X74.199 Y159.951 E68.19753
G1 X73.956 Y159.862 E68.20958
G1 X73.628 Y159.805 E68.22508
G1 X73.542 Y159.8 E68.22909
